/* XPM */
static char *_80effccc9f642b49ab2184128087e3cJSouL9rUFwmzuILv[] = {
/* columns rows colors chars-per-pixel */
"64 64 199 2 ",
"   c #1C160E",
".  c #1E180F",
"X  c #1D1B12",
"o  c #21160D",
"O  c #241A0F",
"+  c #2C1C0E",
"@  c #331E0E",
"#  c #3A1F0D",
"$  c #251D11",
"%  c #2A1E10",
"&  c #301F10",
"*  c #17231F",
"=  c #1D221A",
"-  c #1F281F",
";  c #35200F",
":  c #3C210E",
">  c #262215",
",  c #2C2313",
"<  c #24251A",
"1  c #2A2719",
"2  c #25291E",
"3  c #2C2A1B",
"4  c #2E2817",
"5  c #332412",
"6  c #3B2511",
"7  c #352916",
"8  c #3C2A15",
"9  c #332D1A",
"0  c #3B2E18",
"q  c #35311E",
"w  c #3C331C",
"e  c #1F2920",
"r  c #242D22",
"t  c #2B2F20",
"y  c #3E3A23",
"u  c #363420",
"i  c #421E0B",
"p  c #481F0B",
"a  c #44240E",
"s  c #4A250D",
"d  c #4D290F",
"f  c #52260D",
"g  c #5A270C",
"h  c #532A0E",
"j  c #5B2C0E",
"k  c #5E300F",
"l  c #422710",
"z  c #442B13",
"x  c #4B2C12",
"c  c #532E11",
"v  c #5A2F10",
"b  c #463117",
"n  c #4C3215",
"m  c #43341B",
"M  c #4A3619",
"N  c #45391E",
"B  c #4C3A1D",
"V  c #543314",
"C  c #5B3312",
"Z  c #563817",
"A  c #5C3916",
"S  c #503718",
"D  c #533B1B",
"F  c #5B3E1A",
"G  c #622E0E",
"H  c #64310F",
"J  c #6C340E",
"K  c #73350E",
"L  c #7B360D",
"P  c #75390F",
"I  c #7C3B0F",
"U  c #633511",
"Y  c #6A3710",
"T  c #643A14",
"R  c #6C3B12",
"E  c #623F18",
"W  c #733C11",
"Q  c #7A3E11",
"!  c #433B21",
"~  c #4A3D21",
"^  c #4F401F",
"/  c #54401F",
"(  c #5B411D",
")  c #6D4116",
"_  c #63421B",
"`  c #6B4419",
"'  c #634B1F",
"]  c #6C491D",
"[  c #744315",
"{  c #7B4313",
"}  c #7D4916",
"|  c #734618",
" . c #744A1B",
".. c #7B4C1A",
"X. c #7C521E",
"o. c #4C4224",
"O. c #4B4629",
"+. c #474328",
"@. c #534423",
"#. c #5B4521",
"$. c #564927",
"%. c #5C4A26",
"&. c #554B29",
"*. c #5C4D29",
"=. c #624721",
"-. c #644B23",
";. c #6B4D21",
":. c #614F29",
">. c #714F20",
",. c #6C5226",
"<. c #655229",
"1. c #6E5629",
"2. c #6C5429",
"3. c #735526",
"4. c #765625",
"5. c #755423",
"6. c #7C5522",
"7. c #7B5A26",
"8. c #715728",
"9. c #755A2A",
"0. c #735A2A",
"q. c #795C29",
"w. c #775927",
"e. c #833C0E",
"r. c #8A3E0E",
"t. c #82370C",
"y. c #803F10",
"u. c #84400F",
"i. c #8C420E",
"p. c #92450E",
"a. c #95480F",
"s. c #9A4A0F",
"d. c #834411",
"f. c #8A4510",
"g. c #844B15",
"h. c #8C4B13",
"j. c #844E18",
"k. c #914710",
"l. c #934C12",
"z. c #9B4D10",
"x. c #8C5117",
"c. c #84541C",
"v. c #8B541A",
"b. c #8C5A1D",
"n. c #945316",
"m. c #9C5313",
"M. c #9C5A16",
"N. c #945718",
"B. c #945B1B",
"V. c #9B5D1A",
"C. c #975917",
"Z. c #A04E0F",
"A. c #A35412",
"S. c #A95611",
"D. c #A35B15",
"F. c #AB5C13",
"G. c #A15E18",
"H. c #B15D12",
"J. c #96611F",
"K. c #9C621D",
"L. c #A66017",
"P. c #AD6216",
"I. c #A4631A",
"U. c #AA6519",
"Y. c #A5691F",
"T. c #AD6A1D",
"R. c #B36314",
"E. c #BA6513",
"W. c #B56917",
"Q. c #BC6A15",
"!. c #B26618",
"~. c #B36B1A",
"^. c #BA6D19",
"/. c #B5711F",
"(. c #BD741E",
"). c #835B23",
"_. c #8B5D22",
"`. c #815B25",
"'. c #935F21",
"]. c #8C6125",
"[. c #856129",
"{. c #8B6429",
"}. c #866027",
"|. c #936323",
" X c #9B6622",
".X c #9C6A26",
"XX c #946A2A",
"oX c #986A29",
"OX c #A36B23",
"+X c #AB6D21",
"@X c #A16E29",
"#X c #B06F20",
"$X c #AD7225",
"%X c #BC7A22",
"&X c #B77320",
"*X c #C26C14",
"=X c #C1751C",
"-X c #CB7617",
";X c #C07B22",
/* pixels */
"@.+.O.+.O.&.<.] B N M `  .OX'.5.8.].3.-.2.<.3.4.<.2.,.,.;.X.-.=.=. .` | ..] .._ D w N N N w N q 9 q q 3 2 2 2 3 < < < < 2 2 2 2 ",
"~ y y O.O.o.@.=.@.B B ~ ;.B.;.%.:.1.4.*.,.w.6.-.8.].*.2.%.~ @.%.#._ ` D ] _ ` | M N w q w w w 3 3 3 3 t t 3 2 3 2 < 3 3 1 2 2 - ",
"y ! y o.o.O.%.B...( ;.o.@.-.*.9.*.0.2.4.7.,.;.=.<.2.1.w.<.$.-.#.~ ( ( F D D B D D M w 9 q w w 3 3 2 e r t r * * 1 1 = = = 2 r r ",
"N ! ! ! @.;.c.v.F @.-.%.$.@.<.9.<.3.3.).,.,.,.%.1.0.{.).w.%.#./ @.#.F M m w ( D w m B 3 N w w w t y 7.@.r @.5.' < 9 ] ] ! r r r ",
"w w w y @. .....#.@.@.! ~ @.0.9.:.3.3.6.4.&.9.w.1.1.4.,.w.<.$.o.o.~ N N m D E M w F ` N M m N 3 ! OX|.Y.1 OXK.T.X.w =X .~ e r r ",
"w N w ! =.v.v.X.6.o.o.o.y @.0.:.<.8.3.4.w.<.q.q.0.1.1.).0.,.:.@.o.o.N M B D b 0 M E _ M b m m 3 ;.OX* w 2 OXB B Y.N #XB q 2 r r ",
"w B w / ]  .N.N.B.3.$.$.%.5.].2.1.9.<.w.q.q.oX{.2.q..X+X5.:.=.#.B N D B B B w m S m b m w 0 M 0 ' |.;.%Xu |.@.B K.N (.I.B 1 3 r ",
"N D B B ]  .v.v.;.;.5.X.c.b.].8.1.2.<.1.[.[.`.[.XXXXOX X5.:.6.=.! ! B B D w N M M 0 0 w q 9 w 9 ^ OXq %X~ _.D ' K.m U.= 1 9 3 2 ",
"N F D D ..g.j.c.6.;.c.c.b.c.5.-.:.:.0.0.q.9.2.q.OXY.I.Y._.,.5.#.%.@.~ / ~ y w N w q w q w m w 9 2 ].;X|.r |.T.Y.B m ^.U.] X 3 3 ",
"w B ` ` j.h.] ;.6.,.5.b.c.5.;.%.,.q.[.{.[.[.].q.).K.K.V.V.;.#.-.X.=.#./ @.#.B q ( F N w w m B w q 3 y 2 2 q w 3 < 0 m M 0 < 1 1 ",
"/ D | ..v.c.-.*.3.4._.b.5.5.,.:.1.oX.X X).]. XoX.X|.b.v. .;.;. .X.X.c. .] ' B B ` D / ! q q N m w u t t q 3 q 9 9 7 8 7 3 1 < , ",
"N D / -._.;.,.:.,.6.B.B.c._.,.*.w.+X.X|.@X@XOX~.Y.OXK.6.6.;.;.c.v.........| | .._ ( D N w 3 q w w B N q q q q q 3 3 7 7 1 3 , 4 ",
"w ~ @. ...c.>.@.-.`._.K.v.;.,.,.).T.OXoX$XoX XT.Y.Y.b.6.K.c.5.b.c.N.C.j.{ R [ g.` ( N q N q w 9 w F N q q w w 3 1 0 8 0 0 0 1 > ",
"! ! #.' ' | ' ;.6.X.b.V.c.c.).3._._. X{. X&X(./.T.B.c.B.V.I.B.B.B.B.N.n.j.| [ [ [ B B B B q 3 q N B m q q w 9 9 9 9 x z 8 7 5 1 ",
"( @.@._ _ | ` _ ] ] | j.N.v.v.)._.7.).|.{.T.-X^.L.V.X.X.'. X).J.B.V.C.h.g.| | [ ) Z B D N q w N N B m w w 3 w 0 3 0 4 , , 4 8 7 ",
"_ ` ( ..) { } |  . . .c.j.n.n.n.B.4.,.oXOX(.Q.F.F.V.b.5.6. X7.).V.L.M...j.| { } E M N Z D w w w m M m m w 9 b 0 3 7 5 < 1 7 8 5 ",
"_ _ F  .{ | g.j...v.v.c...N.D.F.R.M.Y.+X/.=XQ.R.P.N.b.b._.`.).|.U.G.M.v.n.l.h.g.E D ( _ ( Z B m w w m b 0 w 0 7 4 9 9 1 1 7 6 7 ",
"m M B ) ) E g.} ..n.M.x.x.n.M.E.E.!./.~.!.^.P.!.P.C.b.b.K.5.4.6.V.C.v.n.n.M.m.g.{ }  .( ` D M m w 0 m m 0 w 0 1 3 9 9 4 4 , z z ",
"Z A M D ) [ d.d.h.n.h.n.n.m.D.F.Q.T.+XK.G.^.U.W.R.L.I.B.c.5.`.6.N.G.v.v.n.n.n.l.h.d.| B B B m m w b b 0 9 0 0 w b 0 3 3 4 1 8 6 ",
"n n M B E ) [ l.h.d.d.l.h.l.m.F.R.*X^.G.G.W.U.R.^.D.U.B.).c.4.X.C.D.M.v.G.x.} h.l.d.R D B F m w M m 0 0 9 0 0 8 8 m 8 7 4 1 1 4 ",
"m m M D D ) { } h.l.m.l.h.l.S.H.E.*XQ.Q.!.W.P.R.*XL.G.V.J.|.7.6.B.P.v...D.x.j.n.h.d.} } ` D B N m b w b M n z 8 0 7 7 8 4 1 < 1 ",
"0 9 M F D ` h.h.l.g.m.l.l.A.H.H.*X*X*XR.F.R.P.R.Q.P.V.^.T.OX X|._.K.v. .j.h.m.M.l.d.{ { ` Z B B M 0 b x n x 8 8 8 > > 4 < < 1 q ",
"q w D M F | g.l.m.M.n.M.m.F.F.R.F.F.Q.R.m.m.F.R.F.G.^.^.J.|.K.|._.5.X.v. .| l.g.h.[ F E | F D B D m 0 z z z 8 8 5 < 1 1 1 9 q q ",
"M Z A M ) } g.n.D.F.A.F.F.R.E.P.D.Q.E.F.M.G.L.n.D.P.W.W.K.Y.J.B.K.b.b.V.X.` g.g.h.} } ) ) _ _ M m S M b b 8 z 8 4 > X = 1 0 3 < ",
"D E S A { g.l.n.R.D.M.m.W.Q.R.P.P.E.R.j.X.V.U.U.G.F.F.P.U.U.K.b.I.I.V.v.b.c. .| h.h.[ [ E ) ) M Z R Z z z z 8 7 1 < < < 0 7 9 3 ",
"E A A W { g.{ } D.D.P.D.P.^.Q.Q.Q.F.D.v.c.N.Y.T.I.G.M.L.!.K.I.K.I.L.L.b.b.v...| } | F E D D M A A R C z 8 8 4 1 1 1 3 3 z 8 1 4 ",
"T A T Y T l.} } n.M.R.Q.R.E.Q.R.A.A.h.h.h.C.C.M.U.I.V.U.^.U.I.I.L.G.G.K.I.V.v. .| ( ` _ D F Z A D T A x x 8 z 0 > > 1 0 n 7 5 7 ",
"V T U Z n ) | | M.M.F.R.R.R.R.H.z.z.l.A.x.j.C.M.M.B.K.U.^.T.Y.K.V.D.M.D.U.I.x.c.c.| ` E _ | ) Z F Z b 8 z 8 C x 1 > 8 7 8 5 7 7 ",
"V c V T b M _ [ } n.M.D.A.Q.E.H.z.A.S.A.l.A.P.n.c.Y.L.L.U.T.I.K.K.V.C.C.L.L.n.j.j.} | E E F E D E R S M 8 b R c 7 7 8 8 8 l 6 8 ",
"C x Y Y A A F E ) } m.F.A.E.R.H.S.S.F.m.m.S.F.N.X.B.b.L.G.R.U.K.J.K.N.L.V.M.x.x.j.{ [ ) _ D D Z R { E A 0 n T x 5 8 7 8 7 6 6 8 ",
"n A R Z T S A | _ ` h.F.R.R.F.A.F.H.F.A.F.A.m.c.c.Y.b.V.F.D.b.B.K.B.c.V.M.j.{ h.h.g.[ | } ) A A A T T A b m n n 7 4 7 z 7 , 5 5 ",
"A Z A W T T A | g.j.M.n.F.R.E.F.F.R.F.R.F.P.V.b.U.!.V.L.R.D.v.N.I.V.K.I.M.M.{ [ g.} { } [ R W Y W Z A T S b z z 8 4 4 5 , 5 , 5 ",
"Y C T Y [ d.d.} h.m.m.m.F.F.*XH.F.E.R.P.R.F.C.V.V.V.L.F.m.A.G.v.G.M.L.C.M.n.} ) { | h.{ Y W Y Y W S Z S n V V 7 7 8 7 5 5 , $ % ",
"x x Z T { h.d.W d.s.l.m.A.m.z.l.S.H.A.A.R.n.G.M.M.V.G.A.m.l.m.M.M.n.M.v.h.| [ | | g.d.{ Q Y U { [ A Z n V V V z 7 8 l 5 7 , $ % ",
"V C Y Y d.d.d.I r.a.z.m.m.l.h.{ k.A.z.F.D.M.P.!.D.Q.R.F.F.A.m.m.D.G.n.h.g.{ { f.{ R d.k.Q Y Y U T E A A Z z z l 7 z z , , 4 , % ",
"x C K P R R R f.f.s.z.z.m.n.n.h.W f.A.S.F.G.U.L.L.P.D.P.F.l.l.l.M.C.v.j.h.l.l.d.d.h.d.f.f.u.Y n A E Z b z 8 5 8 5 8 z 5 , , 5 5 ",
"x Y Y W W W R f.h.d.A.F.m.h.l.m.d.f.m.A.S.F.R.I.G.L.L.U.G.M.n.n.M.G.M.x.} g.{ d.h.l.z.d.I W d.T A { Y V 8 8 8 8 8 6 5 5 7 ; a : ",
"C Y R U Y { R T [ h.l.m.h.j.g.m.d.p.Z.A.A.F.G.I.G.n.G.U.F.D.P.D.m.h.g.h.} } } h.h.h.f.u.K d.{ A T W V n z z 8 7 7 7 7 l 5 : s @ ",
"C C Y { R Y Z E { k.d.l.A.h.{ h.d.f.f.f.m.D.v.x.h.l.A.F.D.D.m.h.g.[ { g.} | d.{ d.f.d.I a.l.d.{ W U C x l x 7 5 5 l z 7 , s s # ",
"z V U T T C W R Q Q p.u.p.s.d.d.d.Q f.l.M.M.N.n.m.A.A.F.n.m.l.l.{ R { h.g.[ [ d.k.d.u.i.p.s.k.d.{ Y C x 7 , 7 7 5 7 7 , 5 ; @ @ ",
"x x z z V U I I I P e.e.I k.k.z.d.Q k.A.A.M.n.m.l.k.z.z.l.f.h.f.d.l.l.h._ [ { f.p.W R i.p.I Q R T R Y x 7 5 7 7 5 , , > 5 6 5 , ",
"8 z x 8 x k J J I K L G H I d.d.W e.y.d.h.g.h.d.k.m.m.l.A.l.l.h.d.f.f.W R R d.p.I W U W I U Q R Y P U c x 6 z l 5 , 5 5 $ @ + , ",
"l l z 8 l 7 c J J J K H J I e.P e.e.I W d.f.k.h.z.l.l.l.z.A.A.d.W W Q Y { { d.Q { W R Y U T { W Y P H c h z 6 7 5 5 5 % 5 : O $ ",
"z c x l l z k J V H K J r.L L e.r.e.i.d.f.s.f.l.k.f.d.h.l.m.m.m.d.Q k.f.d.W [ W T Y Y z V W Q { V V H x z z 5 6 6 7 , 5 ; @ $ + ",
"x c z z 7 l d z C c J K r.r.e.L e.r.e.f.f.Q R i.f.l.l.g.d.h.z.f.d.f.k.{ { { E M A ) V 8 C T Y Y V c z z 8 5 6 7 a 5 % % % $ $ + ",
"x x l 8 7 l 6 x x x z K r.e.L L t.e.i.a.Q Q f.f.m.l.m.l.l.k.u.W d.k.l.d.{ W C b b A T V C R Y R U d c 6 7 7 7 7 6 : a 5 % @ @ $ ",
"z x 6 7 8 h c x 7 8 8 C I K K L L e.a.z.d.f.m.l.A.l.d.h.s.p.e.K K u.P I R Y n n n V Y v j J v J H x d d : 5 , 5 , : : ; : + % O ",
"l 5 7 7 8 z z 7 7 7 C C Y G G L L I s.s.l.f.h.k.A.l.l.p.a.i.e.e.e.H K Y x C Y R Q R C J e.J h G G s d a : a 6 , , $ $ : @ @ O O ",
"4 5 4 5 7 5 , 7 7 7 6 x U J J I K e.r.i.y.Q [ h.d.R f.f.I a.s.i.e.I J C U Z C I I R v H K K H J G h a 6 5 5 , % % $ 5 ; O O o o ",
", 5 7 5 7 , , 7 5 8 7 6 C U j H G J e.Q d.k.m.R Z T Q f.I s.s.s.e.g h H R R C Y e.I H d J J j j s s a ; d l , % % 5 @ + + @ + + ",
"7 , 5 , , , 5 7 7 8 7 x j G J H j j I Q d.f.d.T A W { Q e.s.p.a.p.L J K J Y W W K I J H K H l 6 6 : a s : @ + % % O @ @ O + + + ",
", , 5 5 7 , 7 7 7 8 6 c G J J j j H H Y y.i.d.{ R Z n C r.I i.p.r.e.J K K W W C I P k C c l 6 6 a h g f : + + ; 6 % $ + O $ % % ",
", , l l a 7 7 7 7 6 8 x h x h x c j j K e.W R { R R T T I I i.P e.e.I U Y W Y H I H h x 6 6 7 5 h h s h s ; % ; @ , $ @ $ % + O ",
", , a f a a 5 , l 6 7 7 8 C I I I K j H C R { { T R R I I i.i.W e.r.H Y Y R Y k j j d l 6 z 7 5 6 6 ; : a s : : % ; : : $ $ O O ",
"% , : : ; @ % , 7 5 7 7 x K K I U Y K H x U W R V V W J J i.e.i.i.J c U x z c P h s j d s h a 6 : : ; a s f a @ 5 @ @ + + + + O ",
"% + + ; : % , : 7 7 4 8 z x J L J Y H j x z x C n A T Z T W e.p.I c C V z n x c ; 5 a 5 a : a d g s : ; a a + % % X $ + + @ + O ",
", $ & : ; , 5 , , 7 7 5 8 7 C e.K H h s 8 z z 8 8 T A A { W d.i.P T A Z Y C c H l 5 6 d h s d h g s f a : + $ % $ $ % ; + O O O ",
"; % @ @ 5 5 , > > 5 5 5 l x x j G J k z z V S S m S T T Q { Q Q I { [ T x l c j x x 6 a h j d a a : a # : a @ % $ $ O + o O . . ",
"% ; a % , 7 $ $ $ ; 5 5 7 6 6 H G h c c x c U C b Z U Y Q W R R P U U j 7 l x c j j a a a s a f f a a @ + s s % $ + % + O . O O ",
"O @ # % , , $ > $ $ $ , 6 6 l d j h x c x x j l 8 z Y K K Y C U c z x x 7 5 x k H G f s l : f a : @ @ @ + @ # a : # + $ X O . O ",
"O O O $ $ $ $ $ 5 , , 5 5 8 7 d G j x h l c x x C x U J c z x z C n 8 8 l 7 7 l G K K f a h h : @ + + O + + @ a # # + $ X O . . ",
"O O $ $ $ $ $ 5 : % 5 , 5 d l d h d h j s 6 l H J C c c z l c C C c x l 7 z c h j g g g j f a : : @ @ : @ : : # + + + O . O O   ",
"O O $ $ $ $ + : ; 7 7 , , ; : a : s g s 6 h h h j k C x x z c J v 6 x z 5 7 x s s g g f g s : @ a s s f s a # + $ % + % O       ",
"O O O $ % ; # # @ 5 5 5 % % , 5 : f g : % a f G G x z c H j h J h l s 6 , 6 x x d s f g s @ % @ # s p i i a # + $ $ O O O + o o "
};
