/* XPM */
static char *d0a3ae49da994255b280517928195017cOzlpgrbWbUOYlkf[] = {
/* columns rows colors chars-per-pixel */
"64 64 199 2 ",
"   c #1C160E",
".  c #1E180F",
"X  c #1D1B12",
"o  c #21160D",
"O  c #241A0F",
"+  c #2C1C0E",
"@  c #331E0E",
"#  c #3A1F0D",
"$  c #251D11",
"%  c #2A1E10",
"&  c #301F10",
"*  c #17231F",
"=  c #1D221A",
"-  c #1F281F",
";  c #35200F",
":  c #3C210E",
">  c #262215",
",  c #2C2313",
"<  c #24251A",
"1  c #2A2719",
"2  c #25291E",
"3  c #2C2A1B",
"4  c #2E2817",
"5  c #332412",
"6  c #3B2511",
"7  c #352916",
"8  c #3C2A15",
"9  c #332D1A",
"0  c #3B2E18",
"q  c #35311E",
"w  c #3C331C",
"e  c #1F2920",
"r  c #242D22",
"t  c #2B2F20",
"y  c #3E3A23",
"u  c #363420",
"i  c #421E0B",
"p  c #481F0B",
"a  c #44240E",
"s  c #4A250D",
"d  c #4D290F",
"f  c #52260D",
"g  c #5A270C",
"h  c #532A0E",
"j  c #5B2C0E",
"k  c #5E300F",
"l  c #422710",
"z  c #442B13",
"x  c #4B2C12",
"c  c #532E11",
"v  c #5A2F10",
"b  c #463117",
"n  c #4C3215",
"m  c #43341B",
"M  c #4A3619",
"N  c #45391E",
"B  c #4C3A1D",
"V  c #543314",
"C  c #5B3312",
"Z  c #563817",
"A  c #5C3916",
"S  c #503718",
"D  c #533B1B",
"F  c #5B3E1A",
"G  c #622E0E",
"H  c #64310F",
"J  c #6C340E",
"K  c #73350E",
"L  c #7B360D",
"P  c #75390F",
"I  c #7C3B0F",
"U  c #633511",
"Y  c #6A3710",
"T  c #643A14",
"R  c #6C3B12",
"E  c #623F18",
"W  c #733C11",
"Q  c #7A3E11",
"!  c #433B21",
"~  c #4A3D21",
"^  c #4F401F",
"/  c #54401F",
"(  c #5B411D",
")  c #6D4116",
"_  c #63421B",
"`  c #6B4419",
"'  c #634B1F",
"]  c #6C491D",
"[  c #744315",
"{  c #7B4313",
"}  c #7D4916",
"|  c #734618",
" . c #744A1B",
".. c #7B4C1A",
"X. c #7C521E",
"o. c #4C4224",
"O. c #4B4629",
"+. c #474328",
"@. c #534423",
"#. c #5B4521",
"$. c #564927",
"%. c #5C4A26",
"&. c #554B29",
"*. c #5C4D29",
"=. c #624721",
"-. c #644B23",
";. c #6B4D21",
":. c #614F29",
">. c #714F20",
",. c #6C5226",
"<. c #655229",
"1. c #6E5629",
"2. c #6C5429",
"3. c #735526",
"4. c #765625",
"5. c #755423",
"6. c #7C5522",
"7. c #7B5A26",
"8. c #715728",
"9. c #755A2A",
"0. c #735A2A",
"q. c #795C29",
"w. c #775927",
"e. c #833C0E",
"r. c #8A3E0E",
"t. c #82370C",
"y. c #803F10",
"u. c #84400F",
"i. c #8C420E",
"p. c #92450E",
"a. c #95480F",
"s. c #9A4A0F",
"d. c #834411",
"f. c #8A4510",
"g. c #844B15",
"h. c #8C4B13",
"j. c #844E18",
"k. c #914710",
"l. c #934C12",
"z. c #9B4D10",
"x. c #8C5117",
"c. c #84541C",
"v. c #8B541A",
"b. c #8C5A1D",
"n. c #945316",
"m. c #9C5313",
"M. c #9C5A16",
"N. c #945718",
"B. c #945B1B",
"V. c #9B5D1A",
"C. c #975917",
"Z. c #A04E0F",
"A. c #A35412",
"S. c #A95611",
"D. c #A35B15",
"F. c #AB5C13",
"G. c #A15E18",
"H. c #B15D12",
"J. c #96611F",
"K. c #9C621D",
"L. c #A66017",
"P. c #AD6216",
"I. c #A4631A",
"U. c #AA6519",
"Y. c #A5691F",
"T. c #AD6A1D",
"R. c #B36314",
"E. c #BA6513",
"W. c #B56917",
"Q. c #BC6A15",
"!. c #B26618",
"~. c #B36B1A",
"^. c #BA6D19",
"/. c #B5711F",
"(. c #BD741E",
"). c #835B23",
"_. c #8B5D22",
"`. c #815B25",
"'. c #935F21",
"]. c #8C6125",
"[. c #856129",
"{. c #8B6429",
"}. c #866027",
"|. c #936323",
" X c #9B6622",
".X c #9C6A26",
"XX c #946A2A",
"oX c #986A29",
"OX c #A36B23",
"+X c #AB6D21",
"@X c #A16E29",
"#X c #B06F20",
"$X c #AD7225",
"%X c #BC7A22",
"&X c #B77320",
"*X c #C26C14",
"=X c #C1751C",
"-X c #CB7617",
";X c #C07B22",
/* pixels */
"2 2 < 2 < < < < 3 2 2 2 3 q q 9 q N w m m m w S _ ..] ..| `  .=.=.-.X.-.,.,.2.<.5.3.<.2.-.3.{.8.5.'.OX .` M m B ] <.&.O.+.O.+.@.",
"- 2 2 1 3 3 < 2 3 3 3 t t 3 3 3 3 w w w q w N M | ` _ ] D ` _ #.%.@.~ $.2.*.].8.-.6.6.,.*.5.1.:.%.;.B.;.~ N N @.=.@.o.O.O.y y o.",
"r r 2 = = = 1 1 = = 2 t r e 2 3 3 w u t 9 w M D Z B S D ( ( ( ~ #.-.$.<.7.8.2.<.=.-.,.7.5.2.0.*.9.*.-.$.$.;.( ..B.$.O.o.o.y ! y ",
"r r r ! ] ] 9 < ' 5.@.r @.7.y 3 w w w ! 3 B M w S ( w m N D #.@./ #.$.7.).{.0.1.$.,.,.,.).3.3.<.9.<.$.$.$.-.#.F x.c.;.@.! ! ! m ",
"r r e ~  .=Xw X.T.K.OX1 Y.|.OX! 3 m m M m ` F w M _ S M m N ~ o.o.&.<.w.,.5.1.1.7.9.&.5.6.3.3.:.9.0.@.! ~ @.@.#..... .@.y w w w ",
"r r 2 q B #XN Y.N N OX< w * OX-.3 M m m M _ E M 0 m S B M N o.o.@.-.,.0.).1.1.0.q.q.<.7.5.3.8.<.:.0.$.y o.o.o.6.X.v.v.=.! w N w ",
"r 3 1 B I.(.m K.N #.|.u %X;.|.' w M 9 w m m m S m w N N N D N B #.=.-.5.+X.Xw.2.{.oXq.w.7.<.9.1.2.{.5.%.$.&.3.B.B.B. .] / w N w ",
"2 9 9 1 = U.m K.' D _.! %Xq OX^ 9 w 9 q w 9 9 M M m w D B N ! ! =.6.-.3. XOXXXXX[.`.[.[.8.<.2.1.8.{.b.c.X.5.;.;.v.x. .] B N Z N ",
"3 3 X ] U.^.M B Y.T.|.r |.;X].2 9 w M w q w q w N w y ~ / ~ @.%.#.5.,._.Y.I.Y.OXw.2.9.q.0.0.:.:.-.5.c.b.c.c.;.6.c.j.g.} D D F m ",
"1 1 < 9 M m 0 < 3 w q 2 2 y 3 q w B M w w N D ( q N #.#./ #.=.X.-.#.;.V.V.K.K.).w.{.}.[.{.[.w.,.%.,.5.c.b.5.,.6.;.] h.j.` ` B w ",
"> < 1 3 7 8 7 9 9 q 3 q t t t w M N q q ! / D ` B B ' ]  .c.X.X. .;.;. .v.b.|..X|. X].). X.X|.1.-.,.5.5.b._.5.3.*.-.c.v...| D / ",
", > 3 3 7 7 3 3 q q q q q m B w w q 3 w m D ( _ ..| | ........v.c.;.;.6.6.K.OXY.~.OX@X@X|..X+X7.*.,._.c.B.B.6.,.:.,.;._.-./ D N ",
"> , 0 0 0 0 0 1 9 m w q t m F w q w q N q m ( ` g.[ E { j.C.B.c.v.5.c.K.6.b.Y.Y.T. XoX$X|.+XT.).,.,.;.v.K._.).-.@.>.c... .@.~ w ",
", 7 7 8 z x 9 9 9 9 w q q m B m q 3 q N B B B [ [ [ | j.n.N.B.B.B.B.I.V.B.c.B.T.&X%X&X X{. X_._.3.`.c.c.V.b.X.6.;.' | ' ' #.! ! ",
"7 8 , > , , 0 3 0 w 3 w w M B m m w q N S N D ) [ | | g.h.C.V.B.K.). X'.X.X.V.U.^.-XT.{.|.).7._.).v.x.N.j.| ] ] _ ` | _ _ @.@./ ",
"7 6 7 , < 7 7 3 0 b 9 w M M M m w w w D D m M E } { | j.} C.L.V.).`. X6.5.v.M.F.F.Q.(.+XoX,.5.B.n.n.n.j.c. . . .| } { ) ..( ` _ ",
"7 6 7 , 1 9 9 , 7 0 w 0 b m w w m B D ( _ ( S E g.h.l.n.v.m.M.I.|.).)._.b.v.B.P.R.W.=X/.+XY.M.R.F.D.N...c.v.v...j.g.| {  .D _ _ ",
"z z > , , 9 9 3 3 9 w 0 b m 9 w M M S ` _  .} { g.A.m.n.n.x.C.V.6.5.5.K.b.v.C.U.!.P.^.!.~.(.!.E.E.m.n.x.x.M.n...} g.E ) ) B M M ",
"6 8 , 4 3 3 9 b m 0 0 7 0 m m w m M B B N | d.h.l.n.n.n.v.v.G.B.6.).5.c.B.I.L.!.W.U.^.G.K.+XT.Q.S.D.M.n.n.h.n.h.d.d.[ ) Z M Z V ",
", , 1 , 9 0 m 8 0 0 0 9 9 9 m M w M F B S E d.l.h.} x.G.v.C.G.C.X.5.c.).B.U.G.Q.!.U.W.G.G.^.*XR.F.m.l.h.l.d.d.h.l.[ ) E B M n n ",
", < < , 8 7 7 0 8 z n n m w m m m B S ` } } d.h.n.j.x.G...v.U.B.6.7.|.J.V.G.P.*X!.U.W.!.W.Q.*XE.H.S.l.h.l.m.l.h.} { | S S M m m ",
"q 1 < < , < > 8 8 8 x n n b 9 M N N D ` { } d.l.m.M.h.j. .v.K._.|. XOXT.~.V.P.W.!.P.R.F.!.*X*X*XH.H.S.l.l.m.g.l.h.h.` D F M 9 0 ",
"u q 9 1 1 1 < 7 8 8 z z z 0 m Z N D F | E F [ h.g.l.| ..v.X.5._.|.K.|.J.^.^.G.F.!.F.M.m.R.W.F.F.R.S.F.M.C.n.m.m.l.g.| F M S w q ",
"< 3 0 1 = X > , 8 z 8 b m M S M M _ _ ) ) } } h.g.g.` X.V.b.b.K.B.J.Y.K.W.W.P.D.n.L.G.M.S.E.W.D.P.E.R.F.F.A.S.D.n.g.} ) M Z F M ",
"3 9 7 9 < < < 1 7 8 z z 0 V R Z M ) _ E [ [ h.x.|  .c.b.v.M.I.I.b.K.U.U.U.F.F.G.U.U.M.X.j.R.E.P.P.E.W.W.D.m.D.R.n.l.g.{ A V E S ",
", , 0 z 3 3 1 1 1 , 8 8 z C R A Z M Z S E F | ..| ..v.B.v.L.L.I.K.I.K.!.U.M.G.I.T.Y.B.c.v.A.F.Q.Q.W.Q.P.D.R.D.D.} { g.{ W A A E ",
"6 7 7 n 9 1 > > 0 z 8 x x A T Z A Z A Z _ ` (  . .v.M.I.K.G.G.L.I.I.U.^.U.M.I.U.M.C.C.h.h.h.A.S.R.Q.E.E.Q.R.m.n.} } l.U R U A T ",
"6 7 7 8 7 8 > , x C 0 z 0 b V A Z ) | _ E ` | c.c.x.I.U.G.M.M.V.K.Y.T.~.U.K.B.M.m.C.j.x.A.l.z.z.H.R.E.R.R.F.m.m.| | ) n V U U V ",
"8 6 l 8 8 8 7 7 c R m 0 M S E E Z E F E E | } j.j.n.U.L.C.C.V.K.K.I.T.U.L.L.Y.c.n.P.A.l.A.S.A.z.H.E.W.A.A.M.n.} [ _ M b T V c V ",
"8 6 6 7 8 7 8 7 x U n 0 A E { E Z Z Z E ) [ { j.x.x.C.M.L.B.K.J.K.U.!.G.L.b.B.X.N.F.S.m.m.F.S.S.H.R.E.A.S.m.} ) E Z A Z R R x C ",
"5 5 , 6 z 7 , 7 n n b m A T T A A A ) } | [ g.h.h.{ j.M.V.c.B.K.B.b.D.F.V.b.Y.c.c.M.S.F.S.S.H.F.S.F.R.R.F.h.` _ | Z V T Z R A n ",
"5 , 5 > 5 , , 8 z z n V T A V W R W R [ } { } g.[ { n.M.I.K.V.I.B.v.D.R.P.V.!.U.b.M.F.F.R.F.R.F.F.E.R.F.n.m.j.g.| Z T T W A Z A ",
"% % , 7 7 7 8 7 7 V V n V V V W Y U W R { h.{ { ) } n.C.C.L.M.G.v.G.A.m.F.L.V.M.V.C.F.R.P.E.E.F.H.*XF.F.m.z.m.f.d.d.d.[ R T C Y ",
"% $ , 6 7 l 8 7 z V V V n Z Z [ { U U Q { d.g.| | [ | h.v.M.n.m.M.M.l.m.A.G.V.C.C.G.n.R.S.A.H.S.l.m.m.S.m.l.s.d.W d.h.{ T Z x x ",
"% , , , , z z 7 l z z V A Z E T U R U Q l.d.R { f.{ { g.h.n.G.G.m.m.m.S.F.R.W.G.W.U.M.D.F.z.S.l.Q h.n.m.m.z.p.u.I d.d.d.U U C V ",
"5 5 , , 5 z 8 7 8 7 0 z b V E Z n R u.f.f.d.h.d.d.l.l.h.j.v.C.m.l.n.l.S.P.G.P.P.P.U.G.S.S.S.f.W h.n.n.m.z.z.s.f.f.R R R P P C x ",
": a 5 7 5 5 6 8 8 8 0 0 V R { A T d.W I d.z.l.h.d.{ g.} x.C.G.M.n.n.m.G.U.L.L.G.I.!.P.S.S.m.f.d.m.l.h.m.F.A.d.h.f.E W W W J Y x ",
"@ s 6 5 l 7 5 7 6 8 z z n V W U Z { d.P u.f.h.h.h.} { { h.g.h.M.D.P.G.F.U.G.n.G.I.G.F.A.m.s.p.d.m.g.j.h.m.l.h.[ T E { R U W U C ",
"# s s , 6 z l 5 5 6 z z x C U W { d.l.a.I d.f.d.{ d.| } g.{ [ g.h.m.G.D.F.A.l.h.x.v.D.m.f.f.f.d.h.{ h.A.l.d.l.{ E Z U R { Y C C ",
"@ @ 5 5 , 6 5 5 7 5 > 6 x C U { d.k.s.p.i.u.d.l.d.[ [ g.h.{ R { l.l.m.n.F.S.S.m.n.N.C.m.l.f.Q d.d.d.s.p.u.p.Q Q R W C U U U V z ",
", 5 6 5 > % , 5 6 6 7 7 x U R U R Q I p.i.R W p.f.{ [ _ h.l.l.d.f.h.f.l.z.z.l.l.m.n.m.A.A.l.Q d.z.l.k.I e.t.P I I I U V z z x x ",
"% + @ % 5 5 , 5 l z 6 x v U P Y R Q U I W U W I p.d.R E W f.f.d.h.l.l.A.l.m.m.l.d.h.g.h.d.y.e.W d.f.I H G L K I J J k x 0 x z 8 ",
"$ O : 5 % 5 5 5 6 6 z h v H P Y W { U U U R W { Q d.{ { U Q W W d.A.A.z.l.l.l.z.f.l.f.d.R I e.e.P t.I J H L J J J c 6 l 8 z l l ",
"+ $ @ ; 5 , 7 6 6 5 z z x H V V { { W V z R R T W [ W d.f.l.Q d.m.m.m.l.h.d.f.l.l.f.s.f.d.i.e.e.t.L L e.J L H V J C z l l x v z ",
"+ $ $ % , % 5 a 6 6 5 6 z z c V U R U C 0 V ) A M E { { { l.f.d.f.z.h.d.g.l.l.f.i.R Q f.f.e.r.t.L e.r.r.L J c C z x l 6 l z v x ",
"$ @ @ % 5 a : 6 : 6 7 6 6 v x U R U R C V T A m b C W { d.l.l.d.P u.l.l.l.m.l.m.f.f.Q Q a.i.e.t.L L e.r.K z x x x 6 l 7 6 l x x ",
"O % + : ; : : , 5 , 5 6 x x x H J v J j v Y V n n n U R I P u.P K e.p.s.h.d.l.S.l.m.f.d.z.a.e.L L K K I V 8 8 6 x c h 8 7 6 x z ",
"o O @ @ : % % , , 6 a 6 l x z H G h J e.J C R Q R R C x U K H t.e.e.i.p.p.l.l.A.l.h.f.l.s.s.I L L G G Y C V 7 7 6 z z 6 7 7 7 l ",
"o o O O ; 5 % % % , 5 5 6 a h G J H L K H v R I I C Z U C J t.t.i.s.p.I f.f.R d.h.[ Q y.i.e.e.L I J J U x 6 7 7 7 , 5 7 5 , 7 , ",
"+ + @ + + @ 5 % % , l d ; a s s j j J J d H I e.Y C R R H h g t.s.s.s.I f.Q T Z R m.l.d.Q e.J G H j U C 6 7 8 7 7 , , 6 5 5 5 , ",
"+ + + O @ @ O % % + @ : s a : 6 6 l H K H J I K W W Y J K J L p.p.p.s.e.Q { W A U d.f.d.Q I j j H J G j x 7 8 7 7 5 , , , 5 , 7 ",
"% % $ o + % % 6 ; + + : f g h a 6 6 l v C k P I C W W K K J e.r.p.i.I e.C n Z R { d.i.Q Y H H j j J J H c 6 8 7 7 7 , 7 5 5 , , ",
"O + % % @ % , @ ; % ; s h d h h 5 6 6 6 x h H I H Y W U U I e.e.P i.I I U T E R { R W e.K j h v x h x v x 8 6 6 7 7 7 l l l , , ",
"o o $ $ ; : ; % : : d a : ; 6 6 5 6 z 6 l d j j k R R R U H e.e.W i.i.I I R R T { { R C H j K I I I C 8 6 6 6 l 5 5 a a h a , , ",
"O + + + + @ @ 5 @ a f s a ; : : 6 a h s d j s h P c z x U c J i.i.e.i.J J W V V R W U x H K Y U I L K x 7 7 5 7 , , ; ; : : , % ",
"O + @ + + % X % % + a s ; : s g d a : a 5 l 5 5 v x n z V C v t.p.e.W U V T T n C n z x j H U J L J x z 6 , 7 7 6 , , : ; + + % ",
"O O o + ; % $ % % $ + : a f s g h d s h d 6 5 l H c C R Z A U P i.d.W { Z Z U 0 8 z z 8 s h H L e.C 6 6 5 7 5 , , 5 % @ : 5 % , ",
". . o o + O $ % % ; a : # a # s a d j h a 6 x x j v l x T [ { I Q Q { Q U U V m V V V z z k J G j z x l 5 5 5 > > , 5 @ ; ; % ; ",
"O o . o + % + % % s s + @ s a f f a s a a a j j v x l 6 j U U P R R W Q R U Z b C U V x c v h G H 6 6 7 5 5 ; % $ % 7 5 % a ; % ",
"o . o X $ + # : s # @ + @ @ @ : s f : l s f G H C x 7 6 x x z c U C U P P U z 8 l j x x c x h j d l 6 6 , % $ % , % % & % # @ o ",
". . O X $ + # # a @ + + O + + @ : h h a f K K G l 7 6 l 8 8 n C z x z v J U x C x x c l h x j G d 6 8 5 5 , , 5 % % % $ $ o O . ",
". O o . o + + + # : : @ : @ @ : : a f j g g g j h c z 6 l x V C C c l z c c C J H l 6 d j h d h d l d 5 , 5 , 6 5 % X % % % O o ",
"      o % + % % + : s s f s s a @ : d g f g g d d x 7 5 z x 6 v J c z x x C k j h h h 6 s g d : a 6 5 , , 7 7 5 ; O $ $ $ % o o ",
"o o + o O O % % + # s i i p p # @ % @ s g f s d x x 6 % 6 s l h J h j H v z x G G f a % : g f : 5 , , % 5 5 5 @ @ # ; % % O o O "
};
