/* XPM */
static char *_aa194823c164444db01a0771c3bfc8cXImuuchcHBp7FQFI[] = {
/* columns rows colors chars-per-pixel */
"64 64 152 2 ",
"   c #652307",
".  c #652509",
"X  c #6C2609",
"o  c #6E2A0B",
"O  c #742C0C",
"+  c #7B2E0C",
"@  c #76300F",
"#  c #7D310E",
"$  c #763010",
"%  c #7D3310",
"&  c #84320D",
"*  c #8B350E",
"=  c #8F380F",
"-  c #92370E",
";  c #94390F",
":  c #9B3B0F",
">  c #843510",
",  c #8A3710",
"<  c #863913",
"1  c #8D3A12",
"2  c #943C12",
"3  c #9C3D11",
"4  c #A23D0F",
"5  c #A93D0D",
"6  c #B23F0B",
"7  c #A23E11",
"8  c #A83F10",
"9  c #954016",
"0  c #9C4215",
"q  c #954418",
"w  c #9D4518",
"e  c #9E491A",
"r  c #AC400F",
"t  c #B2410D",
"y  c #A44213",
"u  c #AC4413",
"i  c #A64817",
"p  c #AD4916",
"a  c #A24718",
"s  c #A54A1A",
"d  c #AB4C1A",
"f  c #B14613",
"g  c #B84712",
"h  c #B44A15",
"j  c #BA4C16",
"k  c #B44E19",
"l  c #B94E18",
"z  c #A7521F",
"x  c #AD511D",
"c  c #BE5017",
"v  c #B4531C",
"b  c #B9551E",
"n  c #B9571E",
"m  c #B8571F",
"M  c #B9571F",
"N  c #BA541D",
"B  c #BC541C",
"V  c #BD541C",
"C  c #BD551C",
"Z  c #BD561C",
"A  c #BC561D",
"S  c #BD561D",
"D  c #BE561C",
"F  c #BE561D",
"G  c #BE571D",
"H  c #BC551E",
"J  c #BE561E",
"K  c #BB531B",
"L  c #BB581F",
"P  c #BB591F",
"I  c #BF581D",
"U  c #BD581E",
"Y  c #BC581F",
"T  c #BC591E",
"R  c #AA5622",
"E  c #AF5929",
"W  c #B35721",
"Q  c #B55720",
"!  c #B65720",
"~  c #B75720",
"^  c #B45521",
"/  c #B85720",
"(  c #BB5621",
")  c #B75B22",
"_  c #B85820",
"`  c #BA5820",
"'  c #BB5B21",
"]  c #BB5823",
"[  c #B85B23",
"{  c #BE5B21",
"}  c #B95C23",
"|  c #BD5F24",
" . c #BB5A21",
".. c #BE5E29",
"X. c #BA5E2A",
"o. c #BB622F",
"O. c #BE632F",
"+. c #BD612D",
"@. c #B56332",
"#. c #BD6431",
"$. c #BE6430",
"%. c #BC6E3A",
"&. c #BD6E3C",
"*. c #BE703D",
"=. c #C1571C",
"-. c #C1551A",
";. c #C0591E",
":. c #C05B1F",
">. c #C15A1D",
",. c #CE611F",
"<. c #C35E20",
"1. c #C56021",
"2. c #C46122",
"3. c #C96323",
"4. c #C3652F",
"5. c #C46C36",
"6. c #C16E3A",
"7. c #C17642",
"8. c #C47843",
"9. c #C47A46",
"0. c #C57D49",
"q. c #C47D49",
"w. c #C87F49",
"e. c #C7804A",
"r. c #C7834E",
"t. c #CA814B",
"y. c #C9844F",
"u. c #CB864F",
"i. c #C98753",
"p. c #C68A56",
"a. c #C68855",
"s. c #CB8852",
"d. c #CC8C56",
"f. c #CA8E5B",
"g. c #C4915F",
"h. c #CD915B",
"j. c #CE945E",
"k. c #CD9661",
"l. c #C89864",
"z. c #D19963",
"x. c #D19C67",
"c. c #D29B65",
"v. c #D09D68",
"b. c #D39F6A",
"n. c #D3A36E",
"m. c #D4A671",
"M. c #D6A974",
"N. c #D6AF7A",
"B. c #D7AD78",
"V. c #D9AE78",
"C. c #D8B17B",
"Z. c #DAB37D",
/* pixels */
"2 , a z z } [ } W d q d v b ( m ^ { Y m ( ^ b L [ ^ b [ v d p d d v v k v k k d i p p p h k b k v v b b x d w d d d v k v v a < ",
"0 2 0 N k 0 d v v v v d b J N K K K K J J J K l K J v 1.x 0 0 d v p d v J v >.>.b b N N J Y J k v =.J J J D J N N k k p p J | R ",
"2 & 2 p k y ; y u f t 5 5 h k j f f f f h j j j l N k N L v 9 u h l l h h j h j l j j h h j h u y y y u h h g f f f y u y f h e ",
"3 * 3 h J %.i.o.t [ t.u.w.v f +.0.e.u.8.l l l l N b J K N d 2 u K K K l j j j j j j j j j h j j h y u h u j f j f y f u u h p w ",
"3 & 2 h d.l.p.N.#...Z.h.v.x.f 7.C.j.z.s.l k V K K K K N v w 2 y h h h j j j j j h h h j j j j h j j j u h j j j j f g f u h h q ",
"2 * 2 s M.4.6 0.5.] M.K h M.X.%.k.6 t g l l V J K v k k >.x , l h j j j j h f h h h h j j j K l j h h y u j j j j j j j j f h q ",
"3 & 2 ^ n...j h g +.M.( k n.X.&.m.9.r.X.y a a s s d v d h s > h j u j j j l h h j j l j j j j l h h l l p h j j j h f j g h u 9 ",
"3 & * d n.] 6.V.6.] M.~ k n.+.&.N.k.v.#.j N k N J ( J K d 0 > h j h j j h y u h j j h j j j j j j j h h k y f j f f g f g j N 9 ",
"3 * - k m.^ h m.0.( m.h h m.X.*.x.5 5 r h h h h N N k J k w # 1 i i u j l k h l h u 3 y u 7 u u p h l h l h u f g j u y g 7 p w ",
"2 * 2 u c.f.%.M.6.^ M.&.q.M.k &.M.9.9.8.h f h p h k d a p a O 1 3 3 2 , 3 p l u u y y 2 0 2 i y l k l j h h f f g g f f j u 0 9 ",
"0 , 2 y x p.x.9.g X.z.k.g.E r @.x.b.n.f.h u y u k k s 2 a s > X * y u 3 3 1 2 3 2 2 0 0 0 2 1 O y a 0 y y : : 7 4 4 y y 7 3 a 0 ",
"2 3 2 , 2 * ; * 1 3 3 3 2 2 1 & 1 2 , * 1 1 & # # & , 2 a i 0 > + O + * & 2 0 y y i 0 0 0 2 2 > + & + O X O O O O X O O # 1 3 y ",
"d d d a y 0 2 1 2 1 9 w 3 0 0 2 1 0 w a a 3 0 i 0 a a a d i p N d d d d v d b v d v d d m x d s d k s s d s d s d x v m [ { m x ",
"3 y h i 0 u p d k d a s a b v v b d v b J v k k k k N b k v D D Y [ Y <.2.} <.<.1.<.<.D <.z s s s h u 0 p k k k N K j l 0 9 p v ",
"u u u y 2 : 7 y u f d a z 3 p u h h h f l N j l l l l N J J b :.>.J D k l h h h K -.h f -.v x w k K c h f h h f f h y u y 3 y u ",
"y h h h u y u f f f h d a i u h h h h p y j j l p k h p h l l k N -.=.-.D k h h h N d h l x 9 % 3 j j j j h f f h f f u h j h h ",
"u u h f f g f u y f h a > h j h h h k l h h l l p u k k k l N k h h j c K K p h u p K K K ,.s $ & u j h j f f f f f g h g h f f ",
"u f u u f u f u y u K d , h h h u k l l j l p k h h l l k u p h p u h j j j h h h h k l l =.v 1 3 u h j j u u f g f y f f y f f ",
"u f f f f f f u u u u y + y u y u k k h h h h k h h u h u u h h j j h h j l j h h j l K p h m 1 3 h j h h h h h f f u u f u f u ",
"h h h h h h f f u y y 2 . & u y u l l h h h p h y h u y u y h h u u h l l j j j j j h j K -.>.1 3 j h l h h h h g g f u f f f u ",
"u l j h h j f u u h K a o * y u h h h h k l h h u h j h h u u u y u f h l h h j j j l N N -.Y 1 : j h j l j j h h f y f u y f f ",
"3 * 3 y u h h j h y j d @ + f u f h h h h h f h j u y h h f y f h h h j j h h h j j K l l j 0 1 = f h 3 7 : : h f u y f f 3 u h ",
"# # O O & * * * - + 2 d 9 # + & # & * * & 1 > # & & & & 1 , + + 2 2 * ; 3 7 3 2 2 3 3 2 1 i s s 2 , 2 2 , > o + * & * 2 2 & # 2 ",
"2 2 0 2 s s d x z s v v x v s s w 0 s a s d v a d z x s a s 0 1 1 1 , , 9 0 d d d d x s v v x s s x x W W z s e s e 9 9 9 2 2 2 ",
"m 0 1 w k d b { <.v Y >.b b J m [ x L v d s d d d J J 3.3.[ d d k v v m <.<.3.<.<.<.1.2.L <.1.b Y b b Y Y m m <.' m [ m ' ) w 0 ",
"b w q y f y y f h h l h u h h h l h h j h u u l u u u h K Y d 0 l N K l u u h h j l K l i l j j j j u u h f f h h h j h h <.d 2 ",
"d q 0 f y l h u h u f l p h l h h h f h h h f f j l h h j N s & u f u h l j j h j h l k h u y f u l j u y 2 3 g g f f h h p 2 = ",
"d 2 3 y 7 f h l l k k k j h u h h h f h j h h y u h h j K >.d 1 7 g f h h h h u p 0 y u h l u u u h h u u y u y y u y 2 h k 2 + ",
"v > * f 3 7 u l k k k h l N h u u h h h u h h h u f u y f =.s 3 u f h h j j h u f u u u y u u u h h u y u y f u y y y y y l 0 # ",
"N < 3 j u u u h h k k h l l K k y 3 u u u h h u 7 y y y y K d 1 y f f j h l h j h f u h h i u u h h y y u u u f u u 3 y u h 2 # ",
"a 1 y j h k k k k k k k k h h h j h y u u y y y 7 u y y y h a 2 u y u p h h h j j h h h l l l h h u 3 u u h h h u y u 7 y h 2 O ",
"i > * j u h p k K N d d N k k h h h u h h h h u h g f y u y 1 = h h j h y y f g h h y y h h j j j u u h h h g g j u u u u h > o ",
"2 > X y h u u i u p h k K K K j h h h h f h h u h j j f f 0 2 & h f u h j k l l K j j 3 u j j j h u f j g f f f f h h h h i 1 . ",
"d 1 # X O + & O & & + + * & & - ; ; - * & + ; - - ; & & 3 0 0 # & ; ; ; ; ; 3 y y y y 2 ; ; : 3 3 2 ; - ; * + ; ; * * * 3 a 0 , ",
"m s d d a 2 2 2 & , 2 , , , > O # 1 2 0 0 1 2 0 2 0 9 9 s d a 0 1 > & > > , 1 2 , , 2 0 1 > < , 2 9 1 1 2 0 2 1 a d q 1 0 v z s ",
"d d p p b v v d v >.d d k k v d 0 d v d d m v x b b m m m v v d v W W ^ [ b b k k k d v m v d a d L [ x d s s m d d v m s s x s ",
"i u u 7 h k d h N >.<.d d 0 p J v k N N k k v v v k J Y >.Y Y Y Y b <.Y J D d v J L Y L 1.m v e p j v <.x 0 3 y u u u K D j j l ",
"h l h u u h h h h h l k y 2 4 u y u f u f f r r u y y f h h h h f y y f y y 7 u f u u f h v d 1 y h u u N k h h g j h h h h g f ",
"h h u y y y u h l k N b a 2 8 h f y u 7 u f f u y u u h h h h h k h y y f u y f u u u f K d 0 , y u K k p l k h f f j l h h h h ",
"7 u y y u 7 y h h u -.N 2 * 4 y u 7 4 u u u f u y f f l y y u h h h f y u f y f f u f y l >.a , h u f h j u g g f f g h h h f u ",
"u u u y u u y f h u j >.0 , 3 u f u y f f f g f y 7 7 f u y h h h l f h f j u y u u u f h D 0 & h l j l u f f f f f f f l h u u ",
"y u u y 4 u 3 7 u h u p 9 * u f u f f u f f f f f y 7 y h f k h f f f u f u p j u u u u 3 N 0 & h h u h h u f g f u u y u f f f ",
"y 7 u y y 3 u u u u h k a & 3 ; y y y y y y y u f f u u f f h h h f f 7 7 u h f f y u h p v x > h j f u f u u f g f u y 4 7 7 7 ",
"f u u u u u u h l h j N s o 3 y h h u u u u 2 y f h h h h u f f j f f f y 0 u u h u u u N k d 1 y l h h h y y y 4 r y y y y y y ",
"y y y u y u u u u y * 2 d % & u p u u f u u y 3 3 3 u h h f u 7 y f f u u y y y p h u y f d a + * y u u y ; y y 3 3 7 7 y y y u ",
"+ O + + # O O O O > 1 9 d 0 # O & * & & & > 2 2 & + # & # # * , 1 3 2 1 1 > & O O O O # 2 d s 0 # # & + + # O & ; 2 * & & & O o ",
"2 * 2 2 0 a 0 a a s s x d w a 0 , 0 s a 2 0 s d v d a 0 0 0 0 a 0 i p a 0 a s s s a s a s d s s s s s a 0 0 0 d a a d a s a 0 2 ",
"s 9 2 i d 2 2 0 x s s x } v v v s x L L v v W L <.<.>.>.m a 0 a L v Y { m [ [ L :.>.b v k N d d v s d m m a i s d d v v v m 0 2 ",
"a 0 1 2 i ; 3 3 3 u y 3 p h u j j h h h h p u u 7 : 7 u k p 2 3 u h f f h u h h f f k l f f f h h l u 7 : y y y 2 y y y 7 y i 2 ",
"9 1 i 7 u f u y 7 u u 7 3 f 7 7 4 7 y u y y h y y y 7 y l a 1 y 7 : y u f y y h h f g u f u u u u y y ; y u u y y u y y y y i 2 ",
"a # ; y y u u 7 7 u u u * 4 y 3 7 : 7 7 3 * y 3 u f y y h y > y y 7 7 y y y y f y y y y h h u u u 4 7 y y y y y y y u y y u p 1 ",
"i & - 4 y u u y y y 7 y 3 * * * f u y 3 u 3 ; y y y y y p 2 2 f u u y 3 y y y y u y 7 y u f u u f y y u y 2 y u y u u u 7 u u 2 ",
"a # & : u y y r 7 3 3 0 u u y 3 7 u f u u u 3 7 u u u f h 2 * y u f f y u u y y f u 4 y y y u u g : ; u y y y y y u u u u h p , ",
"0 # * r 7 7 4 4 u u y 7 2 ; y y 4 : : y u h h u u u 7 f h 0 * y y f u 7 y u h y - y 7 y y y y 7 4 u y y y u 7 y y y 7 y y u i > ",
"3 O & 4 : : : : 7 4 : 3 y 3 ; 2 2 y 7 2 3 y u h u y 4 4 y 2 & h u : : 2 3 3 y j i 7 y 7 u y y 3 7 u y u y y y y y y u y y y y # ",
"* O   4 5 4 7 4 4 7 & 3 u y y i i h h u 7 y y f g f 1 , 2 2 O : 4 y y y 7 7 y y 7 y u 3 y u f f u f u y y r 4 y 7 7 3 y y 0 3 # ",
"2 , o X + + & & & ; * + * & & ; ; 2 2 3 & - ; & * 3 a 0 a a 1 O O ; * & * * & & * * & + 3 ; ; ; - - : : * & & - * & > > 1 2 3 1 ",
"0 0 2 # + < , 1 1 , 2 > > 1 > > 1 2 2 9 2 1 1 1 < 9 a s d i d d 0 2 9 1 1 < 9 2 1 2 1 & + # o o O # > 1 2 2 < 1 2 1 1 3 2 a a 0 ",
"d a a 0 d v d d x x d i 0 0 d v d v x v v v b m L { L b b x k v b k d m x d x m v v v N v s 0 d 0 0 v d k d d v e a w p i s v v ",
"3 3 y y y y 7 y : 2 a 3 3 , y u 2 3 y y y 0 i y y y y u u p i u i i y 3 y p i h h p u u k d 2 1 9 1 3 7 3 3 0 y u a d 3 3 3 ; ; ",
": ; & : : 3 7 7 7 y l a 1 2 4 7 y 3 y y 3 3 y 3 : 4 : : 7 3 y 3 y i y y 3 2 2 y u u u y u k i > y y y y y y y y 3 3 3 a 3 7 : 3 ",
"y y y : 7 7 7 7 y 7 h y # * 7 7 7 y 7 7 y 3 3 y * * ; 3 3 7 u u y y y 3 3 y y y y y y y u l 0 # 3 y y y y u 7 7 3 y y 3 3 y y : ",
": : 7 7 : 7 4 4 7 y u 3 + ; 7 y 7 7 : : 7 7 : y u u y : 7 ; 3 y y y u u 3 3 y y y y 7 3 y h 2 O 3 y y y 7 7 y 7 2 3 3 3 3 3 3 : ",
": : - & & & : : : : y 0 O * 3 : 7 : : & & - : : : 4 3 3 7 7 7 y y 7 y u y y 2 y y 7 7 7 7 u 1 O 2 7 3 7 : 3 3 3 3 3 3 3 3 3 3 3 "
};
