/* XPM */
static char *_b5758b3cc6c484edcde0a48c38675450ZU1POUWeRyvO7sF[] = {
/* columns rows colors chars-per-pixel */
"64 64 190 2 ",
"   c #2D3517",
".  c #273318",
"X  c #2B361A",
"o  c #2F381B",
"O  c #313717",
"+  c #383B17",
"@  c #353B1A",
"#  c #3B3E1B",
"$  c #413E18",
"%  c #3D411D",
"&  c #4E4517",
"*  c #44431C",
"=  c #49461C",
"-  c #4D491E",
";  c #524B1D",
":  c #5B4E1C",
">  c #5C511E",
",  c #7D4D10",
"<  c #64541D",
"1  c #6A561C",
"2  c #6B591E",
"3  c #7B5A16",
"4  c #725719",
"5  c #745D1E",
"6  c #7C5F1B",
"7  c #7C611E",
"8  c #464720",
"9  c #4D4A20",
"0  c #564F20",
"q  c #5A5120",
"w  c #665721",
"e  c #6B5B22",
"r  c #725E20",
"t  c #766121",
"y  c #7C6321",
"u  c #814E0F",
"i  c #9B550A",
"p  c #9F5F0F",
"a  c #835514",
"s  c #8E5610",
"d  c #845816",
"f  c #8B5814",
"g  c #815F18",
"h  c #955D13",
"j  c #9B5E11",
"k  c #A35407",
"l  c #AC5A07",
"z  c #A55B0A",
"x  c #AB5D0A",
"c  c #B25E06",
"v  c #B15F08",
"b  c #8E6517",
"n  c #83631B",
"m  c #8C661A",
"M  c #87681E",
"N  c #8D6A1E",
"B  c #906018",
"V  c #936B1C",
"C  c #9E721D",
"Z  c #AD620C",
"A  c #B66107",
"S  c #BA6306",
"D  c #BF6807",
"F  c #B3640A",
"G  c #BA6709",
"H  c #B5690D",
"J  c #BB6C0C",
"K  c #BE710E",
"L  c #A46411",
"P  c #A96714",
"I  c #A36C16",
"U  c #A06F19",
"Y  c #AC6D14",
"T  c #B56C11",
"R  c #BA6E10",
"E  c #A4751D",
"W  c #AB741A",
"Q  c #A6781F",
"!  c #AC7A1D",
"~  c #BD7312",
"^  c #B77817",
"/  c #B27D1E",
"(  c #BB7C19",
")  c #826721",
"_  c #856921",
"`  c #8C6C21",
"'  c #936F20",
"]  c #947223",
"[  c #9C7521",
"{  c #A17620",
"}  c #A47A22",
"|  c #AC7C21",
" . c #B27F21",
".. c #C16E0A",
"X. c #C4740D",
"o. c #C8770E",
"O. c #C8770D",
"+. c #C9760C",
"@. c #C7780F",
"#. c #C7780F",
"$. c #CB780B",
"%. c #CA790E",
"&. c #CC7B0E",
"*. c #CA7B0E",
"=. c #C07311",
"-. c #C37510",
";. c #C07412",
":. c #C17613",
">. c #C57711",
",. c #C37714",
"<. c #C27611",
"1. c #C77911",
"2. c #C77912",
"3. c #C77A13",
"4. c #C57A11",
"5. c #C77B14",
"6. c #C77C15",
"7. c #C57A13",
"8. c #C87910",
"9. c #C87911",
"0. c #C97A11",
"q. c #C97B12",
"w. c #CB7B11",
"e. c #CB7C11",
"r. c #CB7D12",
"t. c #C97C12",
"y. c #CC7D10",
"u. c #CE7F11",
"i. c #CD7F13",
"p. c #CD7E12",
"a. c #C97D15",
"s. c #C97E15",
"d. c #CA7D12",
"f. c #C77F1A",
"g. c #D07F11",
"h. c #B5801E",
"j. c #BD831F",
"k. c #AF8024",
"l. c #B38122",
"z. c #BA8422",
"x. c #BF8923",
"c. c #D1800E",
"v. c #C68117",
"b. c #CE8013",
"n. c #CB8017",
"m. c #CE8215",
"M. c #CD8217",
"N. c #CD8215",
"B. c #C5841C",
"V. c #CD8419",
"C. c #CE891C",
"Z. c #D18212",
"A. c #D38413",
"S. c #D58513",
"D. c #D08314",
"F. c #D38716",
"G. c #D18414",
"H. c #D18514",
"J. c #D68915",
"K. c #D48916",
"L. c #DA8D16",
"P. c #D18719",
"I. c #D3891A",
"U. c #D48C1B",
"Y. c #D98E1A",
"T. c #DA9017",
"R. c #D6901E",
"E. c #DB921D",
"W. c #DF981F",
"Q. c #E19117",
"!. c #E2951D",
"~. c #E4991F",
"^. c #C58620",
"/. c #C48922",
"(. c #CC8A21",
"). c #C58F28",
"_. c #D38E20",
"`. c #D69221",
"'. c #DA9522",
"]. c #DD9924",
"[. c #DD9D2A",
"{. c #E19720",
"}. c #E39B23",
"|. c #E89F23",
" X c #E7A027",
".X c #EAA125",
"XX c #E3A12D",
"oX c #E9A32A",
"OX c #EEA92D",
"+X c #F1A526",
/* pixels */
"l k l x l v k ..H i z J H J G A F v v G G z l A X.q.H x G J X.=.J G ....X.G G X.*.X.G ..X.J J J F F J J F G X.X.G G F F F F Z i ",
"l l A G l x G ..H Z F K q.J X...J F X.X.F F X.X.Z.t.s.~ <.K ,.2.J G X.J X.+.X.$.+.t.2.K 2.R ~ <.Z F G K J X.J G G G G J H Z Z z ",
"k v G F j Z j T X.L Z X.J G J X.q.q.q.>.X...+.Z.u.t.q.J s.X.q.u.X.q.t.u.F.q.2.*.q.F.K.u.t.t.q.X.K X.X.X.K u.X.F X...G J x F x z ",
"k A x u h L a f L d H G G X.X.u.X.=.s.>.X.X.&.u.u.2.u.X.X.u.@.X.s.m.>.X.~ <.S.*.+.A.Z.X.2.q.D.m.m.Z.2.X.J X.X.X.t.G G J F Z J H ",
"k A Z s L L L L h B 2.X.J X.q.m.~ 2.t.X.u.*.u.u.<.@.Z.&.u.I.n.6.m.s.m.t.<.t.S.S.c.t.2.t.n.t.F.7.P.K.2.X.X.X.J X.q.J F J J G H H ",
"z A Z , a L a f Y d ^ D.K >.>.m.s.K.A.Z.F.Z.Z.V.7.m.K.u.I._.P.s.t.u.u.q.t.u.X.t.J.K.t.Z.D.m.2.2.s.m.X.X.u.q.K X.t.*.X.X.S S F F ",
"F F T P p X.L T s.W ( M.,.7.s.U.m.m.2.Z.t.Z.S.F.s.K.`.U.K.n.6.7.u.u.&.Z.m.m.&.u.F.K.E.K.m.I.F.b.2.~ ~ >.u.2.<.<.s.+.G G v l F F ",
"G X.J H J J X.g.m.u.&.s.s.F.P.P.m.2.7.t.V.K.U.F.V.R._.n.m.F.t.P.U.K.A.S.U.V.A.Z.u.i.s.V.F.Z.F.m.t.m.m.s.I.u.u.2.2.*.X.G v G J x ",
"F G G X.R R =.X.7.s.F.m.V.s.P.M.P.P.U.P.U.I.v.v.P.U.I.P.F.F.F.b.F.J.S.F.U.t.I.E.P.U.V.n.U.L.Z.m.6.V.D.*.2.u.F.X.X.X...X.S F z z ",
"Z F G K 7.,.2.&.*.q.P.U.I.M.P.V.V.E.].K.M.2.u.m.m.m.Y.K.u.m.P.P.F.I.K.K.F.K.P.P.U.`.U.F.U.U.X.<.v.V.U.&.X.t.K.*.........A A x l ",
"G X.G J 6.7.~ 2.F.s.m.K.V.m.U.P.K.'.U.<.H <.Y.S.E.V.t.b.t.m.E.].R.I.U.'.R.K.P.P.U.K.U.U.S.F.s.f.V.U.U.u.*.X.S.X.X.X.X.F F J ..A ",
"Z G ..<.7.v.C.v.n.&.t.F.U.U.V.F.P.P.C.F.P.I.K.L.E.m.m.K.E.E.I.Y.W.E.Y.].}.E.U.E.W.A.U.].E.K.F.U.U.E.S.u.u.u.u.u.*.*.X.J ..+.D S ",
"J J J <.q.K.V.B.V.b.b.F.Y.Y.V.F.u.V.V.U.E.P.I.Y.U.Y.K.U.K.U.U.L.W.}.U.U.U.U.W.E.K.P.E.`.Y.U.I.].].~.K.K.F.F.m.K.u.X.X.X.*.&.c c ",
"J K 2.2.2.F.I.U.U.F.K.m.F.P.U.I.U.I.R.I.P.V.U.U.Y.U.U.P.t.Y.~.E.Y.E.K.W.`.W.E.F.'.'.].U.I.V.I.`.U.W.Y.P.V.I.K.F.b.*...J X.X...A ",
"J <.~ >.X.X.X.t.F.K.U.m.K.R.U.'.].U.U.I.'.].E.U.V.E.U.(._.Y.U.W.}.U.E.E.].'.E.P.U.].].P.'.E.E.U.U.U.E.U.I.U.U.F.A.u.G X.J X...S ",
"J J K <.>.2.<.m.b.Z.I.P.F.K.U.Y.E.P.V.U.'.E.Y.K.K.'.U.(.(.P.E.'.}.E.E.].].].E.E.F.U.U.F.I.I.U.}.'.I.E.E.F.U.K.L.c.&.+.X.q.X.F l ",
"H X.m.s.s.2.7.s.m.F.7.n.F.I.E.E.E.U.I.].U.`.Y.W.].[.`.`.U.P.XX'.E.].U.].W.].U.U.E.U.I.I.b.I.V.R.U.E.E.U.U.m.F.K.&.Z.u.*.*.X.G G ",
"X.q.2.2.b.*.X.<.2.F.K.L.S.K.I.I.E.|.!.'.m.'.U.].}.oXoX.X}.}.}.].}.|.}.}.U.U.E.U.E.E.E.}.!.~.Q.~.L.!.!.~.~.J.J.L.A.u.Z.&.X.F v A ",
"H J X.@.b.F.6.f.f.P.K.E 1 ; & & : r { `._.U._.`.}.[ t y 5 5 5 y _ N [ | '.}.'.E.E.U.E.V 7 7 n n g n M m n n 4 b L.F.t.m.X.G S A ",
"X.2.S.t.m.v.P.M.P.( : @ O O + # * * # < (.E.`.R.}.< X # # @ * * * * # # ; E Y.U.K.V.M.; @ * # # # @ + * @ @ . : Y.Y.V.V.2.q.X.F ",
"=.2.K.t.7.s.s.K.C.; * * * * # * - * * # 2 E.U.].}.2 # * * % * = = ; = * % @ b !.F.F.U.2 = ; * = = * * & = * # < K.I.P.m.2.t.J J ",
"~ R s.s.~ m.s.J.n   * * * * # # * * * = @ V !.U.}.2 % = * = # # % * - % * * % z.Y.E.W.1 = * * ; ; # * % * * @ < K.m.F.b.q.2.2.>.",
"T T 2.2.2.m.Z.n.; # * * @ ; N ` ; % * * = < R.U.E.< % - = * q w w 9 # * = ; * 7 Y.`.}.< * = * = : : 1 < < : & 4 K.I.n.2.P.2.t.Z.",
"R 2.m.>.t.m.J.W * = ; * ; ( !.~.z.* * = * * j.E.].1 # = = * | }.U.C.t * ; ; = : I.E.].: * = & # I J.'.].U.P.C.`.P.U.n.V.n.2.*.K ",
"t.m.s.s.m.v.Y.V * * = * 7 !.R.U.W.2 * - - * Q |.].2 % * ; * | }.R.W.U.> - = ; - j.~.E.: # # & $ / Q.E.E.E.E.V.P.U.E.C.m.s.<.K b.",
"Z.s.,.n.n.V.S.3 % * - % ` W.U.].|.n % * * @ } |.].e * ; ; # / !.U.V.E.7 * - = * /  X].; % = = * / E.E.E.E.K.U.A.I.U.P.m.,.~ ,.X.",
"t.,.V.K.u.I.Q.6 @ * ; = N }.R.U.}.' % - ; * { !.W.r * ; ; * ! Y.U.R.E.7 % - * % Q W.E.1 * * = * l.}.U.E.E.K.U.K.F.V.V.v.6.~ K ..",
"<.7.m.m.F.E.Q.n * * ; * N |.E.W.E.R.`.C.C.(.].K.E.1 % * - * ! E.U.E.!.7 @ = = * } E.U.1 * = ; * ! {.U.U.U.V.F.U.P.7.t.F.t.Z.X.J ",
">.~ >.K.V.v.Y.n = - * # N }.F.E.I.].W.W.}.].E.'.}.1 @ * - #  .!.R.E.!.n % = * * } ~.U.< # * ; * z.+XE.Y.}.E.U.I.P.V.t.K.t.q.X.q.",
"2.J t.K.s.U.}.n # = = % m !.'.}.E.}.!.E.|.|.W.E.E.1 @ # * % | }.'.'.!.N % * - - Q !.E.> % * * * y N M ) 7 6 B.!.E.E.E.m.m.F.t.q.",
"~ T m.K.I.E.E.n @ * * # ] .X'.h.| Q Q E ! Q B.E.Y.2 * = * # | }.].].}.y % - - * } |.'.< - ; - - * # * * @ @ ( E.E.I.P.V.n.I.n.J ",
"~ 7.P.K.E.E.!.n # * * @ ] OX`.; * = % * % o ] !.W.5 % * = * Q }.].'.}._ % 0 = @ } {.U.1 = - - - = - = ; - * ^ L.U.U.U.P.Y.F.<.X.",
"2.s.t.n.Z.A.~.N # = - # M .XU.1 - > > ; = % [ ~.E.r 9 ; = * | }.E.U.Y.7 * * * # } Q.U.> * ; * = * * * = = % x.W.U.U.I.E.}.W.q.X.",
"m.7.V.V.V.U.|.M + = = * N !.U.; * * * * = # [ ~.!.7 # - = # | !.U.'.W.5 % * * % } }.R.> * * = * ; q > 2 < - /.E.I.U.t.E.W.E.q.J ",
"t.,.f.K.U.U.Q.3 O * * * ] |.'.2 : ; * # * @ } }.!.5 @ * * # Q !.I.U.E.7 % * * * C !.'.< # * = * ! }.C.V.C.R.K.K.K.E.m.U.b.m.t.J ",
"<.m.5.u.K.P.L.3 # & = % N !.E.E.Y.V % * = * { }.E.1 # ; - # } ~.U.V.!.y % * = * C }.'.< * - ; = z.{.V.P.V.U.K.E.Y.U.I.I.F.m.,.<.",
"t.Z.6.6.V.V.E.6 * = * * N Y.U.E.}.' * - = % [ |.}.1 % ; - % | ~.'.C.E.y % - = # C ~.'.< # = > * / }.I.F.V.U.Y.J.L.A.m.m.n.n.s.m.",
"u.s.m.v.s.P.L.n * = * @ n !.U.]..X] % - * * [ !.W.2 % - - 8 | ~.].U.!.y # - - # { !.U.< # = - * l.}.U.U.P.V.K.K.W.Y.V.n.I.V.m.m.",
"2.<.F.I.t.b.Y.n * * * % M Y.P.'.|.N % = * % } }.E.1 # ; - % | }.[.].E.1 % * * * | }.`.2 * * = = / E.U.E.U.I.R.F.K.F.m.Y.U.I.t.2.",
"t.b.A.F.U.n.!.V # % * % < !.E.].|.5 * - * # | }.].2 % ; * # k.|.`.].B.* * * = * /.|.'.1 * * * * j.L.E.].~.~.!.E.K.F.Y.K.U.I.s.K ",
"2.t.t.F.m.C.W. .- = * - * } |.}.l.* - ; = * /.}.W.1 % - = # { W.`.(.1 * = - - > ].}.U.> * = = * { ^././././.( B.K.E.E.m.v.s.X.~ ",
"J q.t.I.n.U.E.I.: - = % - * 1 2 * - * * * < ].'.}.1 % = - = 0 > : ; * - = - * _ ].P.P.< * - = * * - - ; ; = # ; C.E.F.t.~ s.<.<.",
"J X.K.C.V.I.U.Q.V # = % ; ; * # - ; * * # E E.R.}.2 % = - * * * * - * * = * - ( U.`.].: * ; > = - ; - = = * # & v.E.V.b.<.7.<.K ",
"H >.F.K.m.V.V.F.U.2 * = ; - ; * - - = @ 5 Y._.].}.1 % - - ; - - ; ; - = * * Q !.R.U.].< * ; : ; * > q = = * * ; 7.P.v.V.2.2.<.J ",
"~ ~ m.U.I.6.M.I.U.C.5 * # * * * * % = ) `.'.`.'.E.< * * * * - * = = ; 0 7 /.U.`.'.'.'.> % * * * # * - - * * % # 7.Z.I.F.F.A.K G ",
"q.R 6.s.f.,.t.U.V.U.U./ N 7 2 1 5 ` ).XX_.`.].].W.l.} | l.| ! l.l.z./.C.E.].`._.'.`.P.l./ l.| / z./ k.| W W U E F.c.c.*.X.X.J J ",
"u.X.X.K 6.7.s.U.U.`.U.}.!.W.E.E.].{.`.`._.P.'.].].W.E.W.~.}.}.}.oX|.].U.'.'.].`.'.E.].!.E.}.}.W.W.W.E.E.E.J.K.L.Z.b.&.X.J X.H F ",
"X.X.X.t.t.<.t.m.U.`.`.'.U.'.R.E.[._.C.`.U.`.[.].W.R.U.'.E.U.R.R.'.`.'.'.U.'.U.`.W.U.E.E.U.E.`.U.U.V.`.`.U.m.I.V.2.n.X.X.~ ~ F X.",
"F J X.~ 7.b.b.t.b.U.I.'.].U.U.W.].'.'.`.'.`.`.[.[.R.'.].'.].F.E.].U.U.U.U.U.I.'.I.P.'.E.W.W.].'.I.U.U.U.F.F.V.,.<.,.<.s.n.<.G G ",
"F X.*.R q.F.n.V.,.V.K.E.].I.E.E.'.'.U.P.I.I.R.'.'.U.R.'.E.E.U.].].I.I.'.'.E.R.U.'.`.W.E.E.E.].].U.F.b.b.K.A.m.<.X.t.V.n.t.K G F ",
"J J F R 2.m.q.t.v.t.b.J.b.m.V.E.U.F.W.].`.F.E.E.I.E.E.U.W.].R.E.}.U.I.I.I.P.`.U.}.'.E.U.E.].].'.'.F.n.<.F.K.u.7.K u.V.6.T K H F ",
"J 2.2.2.q.q.X.t.F.t.X.b.F.Z.u.E.E.E.U.E.`.U.U.U.E.U.m.I.R._.U.R.E.E.U.U.n.n.].R.I.R.R.V.R.}.`.U.}.E.I.n.V.t.X.t.2.2.V.v.~ <.K K ",
"G J u.u.t.*.*.S.L.t.b.u.b.m.K.U.V.C.V.U.`.U.V.V.E.U.v.U.E.I.E.'.U.E.W.U.I.`.U.P.U.].U.U.U.U.U.U.E.K.m.V.I.t.&.t.,.n.m.7.<.q.X.J ",
"F Z X.J ~ K &.Z.*.q.F.F.b.s.U.U.P.6.n.F.P.E.U.R.U.E.I.P.E.E.].K.V.K.E.U.U.E.U.V.I.E.U.F.s.V.E.K.A.I.F.U.P.`.V.n.6.n.7.7.2.J K G ",
"F F X.X.J H <.*.@.2.F.K.b.F.F.V.I.U.U.I.U.E.U.].].'.U.U.T.E.E.K.K.V.I.U.U.V.M.K.U.P.F.m.2.A.F.I.I.n.t.V.`.U.n.I.V.6.t.t.m.K F F ",
"G X.X.u.<.H K &.F.b.b.&.A.Z.J.V.N.E.U.I.F.b.F.U.`.I.V.V.E.K.K.L.F.s.7.F.I.P.I.V.s.n.t.n.6.v.m.m.s.F.b.t.K.K.b.t.@.2.K <.<.X.J F ",
"G J X.K ~ ~ ~ u.F.u.*.X.b.b.F.A.A.U.E.L.b.m.V.U.b.m.U.V.F.U.E.R.U.I.V.s.t.I.I.F.s.s.u.t.v.v.I.2.F.K.K.t.@.*.F.m.&.*.J J K T H J ",
"x Z H Z H <.~ *.t.<.t.u.b.t.b.A.m.F.F.J.Z.V.V.n.F.Z.F.m.m.U.E.C.I.E.U.v.F.I.n.m.V.P.u.t.b.b.2.<.b.b.b.<.X.X.t.<.*.X.K G J <.H H ",
"Z z Z J 2.*.K @.X.~ R 2.b.m.K.U.u.m.I.u.t.F.I.s.U.A.K.K.b.F.I.6.F.I.F.q.F.V.,.7.v.F.&.*.b.F.2.7.P.F.m.m.m.t.V.~ t.@.X.X.G J <.J ",
"Z Z Z X.K J K 2.2.T ~ <.>.X.b.q.t.b.t.X.t.u.b.b.b.F.F.u.m.P.U.V.5.m.s.t.t.t.6.2.m.t.X.X.*.u.*.2.6.n.s.b.n.s.t.q.q.*.X.>.J H F Z ",
"F G J J G K ~ H J T K b.2.X.q.X.u.q.X.K t.Z.&.t.t.b.t.2.6.m.n.v.I.P.6.v.,.2.s.2.F.*.X.X.2.<.K X.X.<.X.X.t.q.K ~ ~ J Z K T H J F ",
"F F G F G X.J J H F q.*.X.X.A.b.@.b.X.J q.t.K ~ ~ @.b.~ <.,.m.C.v.~ 6.~ ~ 2.q.X.J X.*.u.q.K J X.t.@.J X.K @.~ 7.~ J J F F J +.F ",
"i x F G F J F G F J J J G J X.2.K J X.X.X.X.K ~ K +.X.K J H ~ 6.6.H t.<.T ~ q.J H H X.X.J J F H <.J F J J 2.u.5.,.~ F H H G F v ",
"x F l F Z Z F x F Z x F F H F ~ X.F G F Z F F J J ..G H F Z J ,.2.H ~ <.T T ~ T T F ~ <.H Z Z F J F F F K X.X.J ~ T F Z Z x z z "
};
