/* XPM */
static char *c0d791c40f20460c804d6bb87517e1ab8ytaRrktyCSd8KTn[] = {
/* columns rows colors chars-per-pixel */
"64 64 188 2 ",
"   c #0C0200",
".  c #120400",
"X  c #160903",
"o  c #1B0A02",
"O  c #220E04",
"+  c #251106",
"@  c #2B1407",
"#  c #241208",
"$  c #2B1509",
"%  c #2D1A0C",
"&  c #301607",
"*  c #31170A",
"=  c #341B0C",
"-  c #3B1D0E",
";  c #341F10",
":  c #3B1F10",
">  c #3C210F",
",  c #362111",
"<  c #3C2312",
"1  c #3F2817",
"2  c #3F2718",
"3  c #401F0F",
"4  c #42210E",
"5  c #4B220E",
"6  c #442412",
"7  c #4A2612",
"8  c #442916",
"9  c #4C2A16",
"0  c #442C1A",
"q  c #4B2E1A",
"w  c #512711",
"e  c #532B15",
"r  c #5A2E16",
"t  c #532E19",
"y  c #5A2F18",
"u  c #47311D",
"i  c #4C321E",
"p  c #5D3017",
"a  c #54321C",
"s  c #5C331C",
"d  c #5F381F",
"f  c #612C13",
"g  c #682E13",
"h  c #633117",
"j  c #6C3216",
"k  c #63351B",
"l  c #6A361A",
"z  c #65391F",
"x  c #6C391E",
"c  c #733416",
"v  c #703619",
"b  c #733B1D",
"n  c #7B3D1E",
"m  c #4C3521",
"M  c #533621",
"N  c #5B3721",
"B  c #543A24",
"V  c #5C3B24",
"C  c #563E29",
"Z  c #5B3F29",
"A  c #613721",
"S  c #643B23",
"D  c #6C3D23",
"F  c #643F29",
"G  c #733E21",
"H  c #7A3F21",
"J  c #5F4027",
"K  c #5D422B",
"L  c #644027",
"P  c #6D4126",
"I  c #63442C",
"U  c #6C442A",
"Y  c #65482F",
"T  c #6B492E",
"R  c #744125",
"E  c #7B4324",
"W  c #74452A",
"Q  c #7B4629",
"!  c #75492D",
"~  c #7C4A2C",
"^  c #624731",
"/  c #664A32",
"(  c #6B4C33",
")  c #734D33",
"_  c #7B4E32",
"`  c #6E5037",
"'  c #6E5239",
"]  c #745236",
"[  c #7C5135",
"{  c #74543A",
"}  c #7B553A",
"|  c #76583D",
" . c #7B593D",
".. c #7C5D42",
"X. c #7F6145",
"o. c #833A19",
"O. c #89401E",
"+. c #824424",
"@. c #8A4623",
"#. c #844827",
"$. c #8B4927",
"%. c #804729",
"&. c #834B2C",
"*. c #8A4D2C",
"=. c #924A26",
"-. c #924E2B",
";. c #9B4F29",
":. c #86502F",
">. c #8D512F",
",. c #93512E",
"<. c #9A532E",
"1. c #834E31",
"2. c #884F30",
"3. c #845234",
"4. c #8B5433",
"5. c #8D5837",
"6. c #845639",
"7. c #8B5738",
"8. c #845A3D",
"9. c #8C5A3B",
"0. c #935533",
"q. c #995631",
"w. c #945936",
"e. c #9A5A35",
"r. c #945C3B",
"t. c #9A5D3B",
"y. c #A25E39",
"u. c #8D603F",
"i. c #95603F",
"p. c #9C613E",
"a. c #A3623D",
"s. c #A8643C",
"d. c #845D42",
"f. c #8B5E41",
"g. c #915F40",
"h. c #836246",
"j. c #8E6142",
"k. c #896144",
"l. c #8E6346",
"z. c #8C6244",
"x. c #856549",
"c. c #8A6449",
"v. c #8C6649",
"b. c #87684B",
"n. c #8E684A",
"m. c #8C6B4D",
"M. c #916345",
"N. c #926546",
"B. c #946243",
"V. c #9B6443",
"C. c #936947",
"Z. c #9B6847",
"A. c #916649",
"S. c #946649",
"D. c #9B6749",
"F. c #92694D",
"G. c #966C4F",
"H. c #976F4D",
"J. c #946A4C",
"K. c #9A6B4B",
"L. c #9C704F",
"P. c #976D50",
"I. c #926E50",
"U. c #9B6E51",
"Y. c #927153",
"T. c #9A7052",
"R. c #9B7454",
"E. c #9C7A5B",
"W. c #A26642",
"Q. c #A96741",
"!. c #A46946",
"~. c #A96A45",
"^. c #A46D4B",
"/. c #AA6E4A",
"(. c #B26E46",
"). c #A1714F",
"_. c #AE714D",
"`. c #A17553",
"'. c #A47A56",
"]. c #A17759",
"[. c #A37959",
"{. c #B47752",
"}. c #B47E59",
"|. c #A3805F",
" X c #A9815B",
".X c #A68462",
"XX c #AF8963",
"oX c #B79068",
/* pixels */
"k p z S V T ) ! ! ! Q R W ~ ! I i i i [ 3.3.4.i.`.9.3.6.9.9.M.f.d.E.k.4.S.c. .h.8.A.A.M.N.f.7.j.j.d.] ) ) _ _ &.W _ ~ W ~ b R ) ",
"x D L ) ] T W ~ ! ! R D W Q W T I C i 3.9.7.4.&.4.4.3.9.3.6.9.j.J.} j.S.H.k.n.k.k.f._ [ P.A.3...c.} V Z 6._ _ ~ ~ ! ~ ! R G ! ) ",
"D )  . .] S S W Q Q Q W W ! ~ _ ` ( K P 5.3.&.%.~ 9.1.&.6.9.9.4. .j.T.H.A.S.d.j.T.d.3._ k.d.} Y H.d.) T [ 3.&.W Q Q R Q D b R ! ",
"D P m.R..X] x N.`.XXK.Q ~ W W W ( { ( _ 1.4.4.&.9.9.4.&.4.9.9.&.6.j.J.f.8.k.d.P.F.N.6.f.H.H.n.8.l...d.9.3.~ Q &.W Q Q R R G P ! ",
"D s n.H.3.R.! `.u.3.3.P D R U P ( ' ) 4.4.~ 4.3._ 4.4.%.3.9.9.&.9.f.j.j.9.j.T.R.j.F.f.C.R.U.].F.P.d.8.~ Q &.Q %.Q Q >.Q W E Q [ ",
"D k 8.[ l  X9.'.oXN.R ~ D D P P T { I 4.4.&.3.6.V S ! P 9.f.3.*.7.H.f.M.[.J.d.A.S.f.S.B.K.H.j.f.P. .) [ ! ~ Q Q R R Q E 4.E k ) ",
"S h 8.8.R  X4.'.K._ W ! ! W W U ( ' | &.4.&.~ W V a ~ 1._ j.3.3.4.3.3.d.P.J.| d.M.f.S.K.C.N.l.j.f.| { [ 3.~ ~ &.Q R G R Q Q P L ",
"x h ) A.XXC.E '.'.'.j.R W W W W [ ( ..~ w.4.&.4.M.8.4.4.[ ) 6.4.1.7.t.B.7.f.| 8.6.f.M.S.S.K.S.A.d.( f.6.6._ Q W R R E Q %.%._ ! ",
"D b ! 1.4.G Q 3.M.M.9.R Q W ! L M ` m.! 0.4.&.1.t.M.4.0.7.8.7.4.4.4.r.t.6.d.d.d.8.A.C.V.D.V.B.f.d.K ( 9.6._ D S D R x s k x Q R ",
"a z ! G b R ~ ~ R z D U P W S Z / { ..U x D P U ~ 8._ D D P S D R R G s q 0 K T  ._ ) T I N ) ( ^ / 0 a N a 9 - < 7 < > 6 > > > ",
"I i < < < - 8 q q 8 8 i B B I ..m.x.{ 8 1 M K K ( ( ^ C B K ^ B M B q u ^ ( K / K m m m m C 0 1 m ^ ^ 1 ; % 8 0 8 8 i B B i i V ",
"K ` ` ' ..( ( C B ` h.X.m.E.R.I.E.E.Y.Y.h.| )  . .x.h.X.......x.m.h.x.b.x.I.R.c.c.Y.E..X|.Y.m.m.c.J.n.d.B M Y ( K C M / / K V d ",
") W 9.3.4.t.8.[ 9.C.K.Z.4.r.V.V.V.K.`.`.K.8.6.Z.r.V.K.H.`.H.T.[.f.P.K.).`.T.H.v.[ R.P.F.'.`.`.[.L.t.4.9.9.8.3.! } ) i < K { B 6 ",
"R x %.E h l E &.&.R G H G Q %.4.r.3.W &.0.4.4.Q x D R &.Q %.w.r.9.f.4.r.B.f.C.B.r.9.C.w.V.M.8.9.r.0.,.Q _ 9.9.4.r.w.P q 1 M K } ",
"&.~ b l s p e R *.%.Q &.9.4.4.9.V.8.&.&.0.0.>.Q D R ! 9.B.3.E w.V.t.r.&.0.9.9.9.V.^.1.1.K.v.S.K.t.w.w._ ! 6.4.1.&.*.#.~ Y M [ 4.",
"Q r.%.Q Q 9.9.&.&.&.%.4.t.i.&.&.3.W Q &.0.e.0.%.r.M.A.j.9.4.4.%.&.$.0.0.0.r.g.r.r.Z.9.g.V.K.J.B.r.4.4.9.r.3.*.%.Q &.$.&.( ( 3.%.",
"Q %.&.Q &.3.i.4.*.0.w.e.&.w.t.e.y.w.4.w.e.0.*.*.4.6.K.Z.r.*.0.e.,.Z.t.e.i.r.0.r.M.C.C.t.4.r.V.4.4.r.w.0.w.w.0.E Q 0.0.*.[ ( R R ",
"+.+.b b *.Q *.:.*.0.Q - o O * - 9 %.a.%.x e.&.4.t   = 6 - $ $ : - P 9.w.4.4.4.V.K.K.I = * $ : = # 6 3 - - - $ # # U 0.*.6.B W &.",
"b n G E $.,.&.&.%.9 . # - : $ o   . 6 -   %.r.4.Q 0 $ * @ # $ # O o . * W r.5.t.V.B.R # + + O # # O o o X o o # o s 4.4.3.I 4.%.",
"E R Q Q *.0.,.,.= o e s s A A a s 9 O . X E t.t.s.4.D D D D P S s s 9 O # D 4.t.V.r.r.9.S W ! W D S z s t t s D 9 k r.:.! Y 4.Q ",
"W T ~ %.>.e.E & = D G ! 9.B.!.!.9.Q S a < >.e.w.~.9.P W U A r.r.9.r.~ D - o R /.V.i.r.W._ Q 3.W 9.B.6.6.3.9.3.D e p 0.&.h.Y R %.",
"[ ) 3.&.#.<.y $ G k W 9.W 0.V.V.!.p.R P 9 *.,.t.(.r.P 4.2.S &.W./.{._.1.Q 6 O 7./.~.~.t.W Q ! M 1.~.a.e.Q.t.r.3.e 8 W [ b.{ ! ~ ",
"! _ &.Q $.$.y l %.z 9.9.~ 0.4.4.Q V.3.P 9 *.t.a.e.1.Y *.R t 4.r.t.e.t./.&.Q * 9 !.5.9.3.S Q 1.M R e.4.4.~ _ U 6.S 0 I .. .( _ _ ",
"Q &.&.Q -.b e H E z *.r.3.,.p.r.w.t.t.S 9 Q a.4.p.3.I ~ R t *.4.4.4.0.W.V.W D @ G r.V.r.W Q 1.t D s.r.B.B.9.9.9.9.9.) / ( Y _ ! ",
"&.*.:.4.,.D k +.E z 4.0.i.4.r.i.0.,.a.P 8 Q 0.p.!.t.F _ ~ a r.t.*.0.0.e.Z.P %.- y e.r.9.I R 1.t R s.r.9.4.5.6.6.3.W 1.I / / } } ",
"&.Q &.0.0.z h o.b k w.4.t.V.4.e.e.*.y.^.[ ~ t.p.W.r.P 3.! s V.a.4.%.0.t.V.U E e s !.r.3.T U ~ t W r.4.0.0.4.6._ 6.6.3.[ ( | ) ) ",
"&.Q %.@.E D D n k h 0.t.Z.p.i.q.e.e.e.t.r.t.w.q.s.9.F 3.~ A p.V.t.%.4.r.!._ E D 6 9.^.V.P R Q t U W.0.-.E o N r.! T ) v...I T W ",
"Q :.E G *.D G E h k <.r.p.r.t.0.*.,.e.0.t.a.~.t.*.4.S 1.! z t.t.&.r.w.0.p.) R R 4 ~ W.V.W ~ *.9 9 @.=.b $   h $.~ T _ ) h.) ! P ",
"Q Q %.,.Q t R +.r R 0.4.r.).!.0.,.e.a.a.0.s.a.0.*.4.M ~ S A t.2.4.t.e.t./.[ R Q 7 W /.t.U ~ 1.a O o O + - - D &.W _ _ k.| T &.W ",
"%.E $.<.%.t G b 7 z e.0.i.^.4.&.$.0.4.4.%.$.-.E @.&.N W N s t.0.4.0.>.e.W.~ D %.9 W /.Z.! ! 1.! s 7 6 z D 6 D 4.[ j.6.d.| I 3._ ",
"R %.-.;.&.s E E 9 s *.4.}.r.h . o o . o o . 6 G %.4.A Q N 9 r.9.r.4.r.p.t.! D %.e P 6.3.W ~ 1.W _ 6._ ~ D 7 R r.3._ } } ] T 9._ ",
"R Q +.@.G s G %.y k -.1.!.p.e.A < 7 6 6 - = W *.q.&.A Q A s r.4.4.t.!.!.t._ G H e ! M.B.P S 3.s [ K.^.}.5.6 x t.&.W ! [ ( I ) W ",
"G E @.=.*.h G E e k $.4.7.w.e.Q.w.D ~ W s R e.*.<.1.A Q s s t.r.t.4.r.r.w.W Q Q y W Z.9.I W 1.s P A.3.W.V.A E +.W U ! P / M S U ",
"R Q @.@.,.G R x 7 y ,.w.t.1.Q @.w.D G Q t D a.-.;.&.s G k - 1.r.9.r.3.1.4.S Q &.e ! V.r.D R &.s U K.9.4.e.t.&.! _ _ _ _ ) I ) 1.",
"D E +.O.<.D Q E e w >.r.^.t.>.$.%.P G E 9 R a.e.-.&.A R p a 4.5.4.3.3.4.3.N R E 7 R t.t.S U Q t W 9._ r.&.%.! 1.4.9.[ _ ( ( 9.&.",
"R E n o.,.R x H e s 0.4.t.0.,.-.%.N D l 9 Q t.0.,.R S Q S t V.4.4.1.4.t.1.A ~ x t Q D 1.P ~ %.t S _ U ~ _ ! P W W &.1.3.) V 4.4.",
"z R +.n $.&.s G h 7 e.i.*.%.@.-.4.S G D 7 G e.*.,.W D 1.A t r.5.r.&.4.r._ A Q h s 3.8.3.S P *.t N ^.3.3.8.3.! ~ Q * - 3.} i p ~ ",
"W E +.E %.e.D k G - R ,.$.0.*.r.&.l Q P 6 s %.*.q.Q S ! s P t.w.&.~ 4.4.a P R h ~ 4.r.W.P U ~ t t 9.6._ _ _ Q %.w   7 4.} B s R ",
"R E n +.b E &.z G - 9 -.%.%.*.s.Q s G A 6 W r.4.-.Q S _ s D V.3.4.0.&.- t Q x Q 0.7.4.&.R U D e z &.r.N.r.4.&.y = 7 R ~ ) ( 1.Q ",
"S G v b &.P w.R s 9 # 7 b E G e - a z A - R t.0.<.R D 1.q 6 w.r.3.t O 6 R D E *.r.t.w.4.S Q Q t t h D ! D y - = s w R Q ) ( W R ",
"R G n b %.~ Q t.P t 6 O # = @ + 9 k D D 6 D W.r.0.s A R S $ O @ @ = t E D %.0.4.V.r.r.%.s G &.s # o O o o O = k l e R D ] ) R ! ",
"b b c E R G D z 4.R t 4 = @ 6 s p k G R 6 w 0.w.h 7 S D R a 9 9 s G G Q w.4.R 4.3.3.P @ s D R S z z p p p p k l s w x k S a R 1.",
"l v b D E G &.R P r.r.W D S N N U &.e.W.1.W E $.P R 1.1.4.3.1.1.3.4.t.0.,.&.1.&.3.&.W P 3.4.7.[ 3.1.~ ~ W P U R R ! x l S i y D ",
"x l l R %.Q Q &.3.#.q.s.a.0.0.0.w.%.E %.*.*.%.&.w.t.r.!.V.s.p.r.r.0.>.*.4.7.4.&.&.~ &.r.V.W.a.Q.p./.a.V.t.t.t.t.e.*.l x S m e R ",
"%.G D [ R n n b E G n n H Q $.%.%.E Q *.Q R Q 4.&.R Q Q R #.-.n l b Q &.4.4.6.3.&.&.Q b b E $.$.@.0.Q b H H +.b b b k x ! I e H ",
"+.n x D U f h x l x h h +.Q b l l R G k k R %.*.i.3.3.&.%.n +.%.E E %.&.! _ 1.Q R R G G H E %.H G H &.k l E b H H b x b P L k h ",
"h 5 5 > k v R W W P D D l b E Q R G R R b G Q E Q ~ R b E H b +.Q Q Q E ~ Q R R D D n H E n G b R H E P a x E #.b l b b ! B x x ",
"s 9 s S h l ! [  .8.4.&.R x w 4 z %.%.E E Q R G &.w.4.E b r r f E x Q &.E E R G n b G ~ &.&.l l +.D Q 8.T 7 h y 4 = = < / I = e ",
"% = 8 i = = = % $ = 9 9 6 = = q > 6 7 > = 6 < < 6 < 9 7 = = = , 8 q - 7 q < B I S V I K V ! P P s N V C i 8 % % , u B C I Y , O ",
"M C a i m 0 u M 0 1 = = < 8 a V V B B K B C ` M B m m B B I I C M i i i I / B Y ( I { ( ( ( K ^ M 0 i i K ' ( B ^ I K K I ( I C ",
" .T B L U [ ] ! 8.8.8.[ P ! 8.( T T ) B i J  . .Y  .8.C.A.k.) T Y T  . .I } ..( / ] K Y ( Y ] /  .{ / ] 8. .[ { [ P Z I ]  .8.[ ",
"R &.%.H n R ~ b +.#.%.#.%.@.w.C.T I ] J.R.9.R 9.B.9.:.&.r.V.w.i.M.4.~ 4.3.8.i.6.j.k.! U ~ ! ~ 3.&.%.%.z z D R W G D P S V N s D ",
"b s l j x x x g j b %.E @.#.&.4.[ ] ] 4.*.&.! ~ ~ &.*.&.&.E n E 4.&.#.n Q ! G G E Q E Q R R D v b b b R G G S D D V m M m i z l ",
"e e l h s P P j n #.%.E E &.w.>.! C ~ +.b :.7.6.[ 1.R ! &.~ Q ~ ~ &.E E Q Q ~ D N R n E D N D x x b b b b D N z a 0 i m 0 0 a s ",
"k s p p s A ( z n E E E +.%.#.4.! M z H E *.%.&.&.~ E E Q &.~ ! %.Q E R Q E W ~ ( D b b E R D z l l l l s s s a q q i q 0 0 a s ",
"7 t t k x A ] R b H b b c h c b _ ( G E n E R E ! ! R E Q :.&.*.#.Q E G R P D W N q h h R D z h l l h p z p a a q 0 i i i 0 a a ",
"q 8 a h k p I D x b l g b S l n 3.( 4 c l G R R R W P D Q &.&.Q Q Q P D D V N G S M y l D s s k h h h t p t t a a q q i 0 0 a a ",
"s s s t r S D D x b b h v Q b n D I 0 y b b R R U P d S E R D S R R S V B m S x A D p h k z i a a a t q t a a a a 0 8 0 2 8 i q ",
"z a s s s k k k j j R G x b b E h 0 i k l x D D ! T S S z z s s x x x x z a k z a h k l k s i a s a s s N s I I a a a a q q a a ",
"y s k k k h k G h h b b G x v c s 0 q l l k k x S S z p p k s z k k x k h s s z s a s k a q q a p 9 t p N C V V V s N a i q q a ",
"k r y k l h h j l l b b b R y f z M i y p s t e x z s p k k l s k D x x h t a s a a a a a s z t 6 a s p p N N N N z a a a q 9 a ",
"W D k h l k l l x l b l l b Q G s a i y b l 9 6 h x l l h p h A A x l h h p s k t a a a s s a 9 a s s s t s S N < t s q q q p 9 ",
"L V N a y y w f b b r l b j e 9 < q q 6 s p t 9 4 f h e p q e D D k k x k h z k x k t 8 0 q 9 6 S z s s 8 a D S i < 7 q 8 6 6 7 ",
"A a 1 8 6 9 s e 7 = $ = = = = = q q a 1 % q N a ; % , 8 a q q a S s 9 t t s z p 7 < 9 t 9 8 < 8 6 9 9 a a a 7 9 a a 0 q i N N a "
};
