/* XPM */
static char *_a97c38658554b3f9cb28d5918f0a5aaRFcXHUw0OLISAO5I[] = {
/* columns rows colors chars-per-pixel */
"64 64 152 2 ",
"   c #652307",
".  c #652509",
"X  c #6C2609",
"o  c #6E2A0B",
"O  c #742C0C",
"+  c #7B2E0C",
"@  c #76300F",
"#  c #7D310E",
"$  c #763010",
"%  c #7D3310",
"&  c #84320D",
"*  c #8B350E",
"=  c #8F380F",
"-  c #92370E",
";  c #94390F",
":  c #9B3B0F",
">  c #843510",
",  c #8A3710",
"<  c #863913",
"1  c #8D3A12",
"2  c #943C12",
"3  c #9C3D11",
"4  c #A23D0F",
"5  c #A93D0D",
"6  c #B23F0B",
"7  c #A23E11",
"8  c #A83F10",
"9  c #954016",
"0  c #9C4215",
"q  c #954418",
"w  c #9D4518",
"e  c #9E491A",
"r  c #AC400F",
"t  c #B2410D",
"y  c #A44213",
"u  c #AC4413",
"i  c #A64817",
"p  c #AD4916",
"a  c #A24718",
"s  c #A54A1A",
"d  c #AB4C1A",
"f  c #B14613",
"g  c #B84712",
"h  c #B44A15",
"j  c #BA4C16",
"k  c #B44E19",
"l  c #B94E18",
"z  c #A7521F",
"x  c #AD511D",
"c  c #BE5017",
"v  c #B4531C",
"b  c #B9551E",
"n  c #B9571E",
"m  c #B8571F",
"M  c #B9571F",
"N  c #BA541D",
"B  c #BC541C",
"V  c #BD541C",
"C  c #BD551C",
"Z  c #BD561C",
"A  c #BC561D",
"S  c #BD561D",
"D  c #BE561C",
"F  c #BE561D",
"G  c #BE571D",
"H  c #BC551E",
"J  c #BE561E",
"K  c #BB531B",
"L  c #BB581F",
"P  c #BB591F",
"I  c #BF581D",
"U  c #BD581E",
"Y  c #BC581F",
"T  c #BC591E",
"R  c #AA5622",
"E  c #AF5929",
"W  c #B35721",
"Q  c #B55720",
"!  c #B65720",
"~  c #B75720",
"^  c #B45521",
"/  c #B85720",
"(  c #BB5621",
")  c #B75B22",
"_  c #B85820",
"`  c #BA5820",
"'  c #BB5B21",
"]  c #BB5823",
"[  c #B85B23",
"{  c #BE5B21",
"}  c #B95C23",
"|  c #BD5F24",
" . c #BB5A21",
".. c #BE5E29",
"X. c #BA5E2A",
"o. c #BB622F",
"O. c #BE632F",
"+. c #BD612D",
"@. c #B56332",
"#. c #BD6431",
"$. c #BE6430",
"%. c #BC6E3A",
"&. c #BD6E3C",
"*. c #BE703D",
"=. c #C1571C",
"-. c #C1551A",
";. c #C0591E",
":. c #C05B1F",
">. c #C15A1D",
",. c #CE611F",
"<. c #C35E20",
"1. c #C56021",
"2. c #C46122",
"3. c #C96323",
"4. c #C3652F",
"5. c #C46C36",
"6. c #C16E3A",
"7. c #C17642",
"8. c #C47843",
"9. c #C47A46",
"0. c #C57D49",
"q. c #C47D49",
"w. c #C87F49",
"e. c #C7804A",
"r. c #C7834E",
"t. c #CA814B",
"y. c #C9844F",
"u. c #CB864F",
"i. c #C98753",
"p. c #C68A56",
"a. c #C68855",
"s. c #CB8852",
"d. c #CC8C56",
"f. c #CA8E5B",
"g. c #C4915F",
"h. c #CD915B",
"j. c #CE945E",
"k. c #CD9661",
"l. c #C89864",
"z. c #D19963",
"x. c #D19C67",
"c. c #D29B65",
"v. c #D09D68",
"b. c #D39F6A",
"n. c #D3A36E",
"m. c #D4A671",
"M. c #D6A974",
"N. c #D6AF7A",
"B. c #D7AD78",
"V. c #D9AE78",
"C. c #D8B17B",
"Z. c #DAB37D",
/* pixels */
"< s v v k v d d d w d x n n v v k n l p p p p i d k k v k v v d d p d v _ n ! _ P n ! _ m I { ! m / n v d q d W | _ | z z y , 2 ",
"R | Z p p l l K K Z V Z Z Z =.K k Z I Z K K n n ;.;.K I v d p v d 0 0 x 1.K Z c l c Z Z Z b b b b K Z n d v K v v d w k K 0 2 0 ",
"e h f y u y f f f g h h u u u y u h j h h j j l l h j h h l l h u 9 v P K l K l j j j l f f f f j l h 5 5 t f u u ; y l p 2 & 2 ",
"w p h u u u u f j g j u h u y h l j h j j l j j j j j j l c c c u 2 d K c Z n K l c l l 8.y.e.0.O.f v w.y.t._ t o.i.&.Z h 3 * 3 ",
"q k h u f g f j l j j h u j l j h j j j j h h h j l j j j h h h y 2 w v K b b b b B l l i.z.j.C.7.f c.b.h.Z...#.B.a.l.d.h 2 & 3 ",
"q h f j h j j j l j l u y h h j l c l j j h h h h f h l l j j h l , x ;.k k v b Z B l l g t 6 k.&.X.M.k b M.[ 5.0.6 4.M.s 2 * 2 ",
"9 u h g j g h j l j h p l l h h l j j j j l j j h h l j j j u j h > s h d k d s s y y u X.r.9.m.&.X.n.l / M.O.g h j ..n.^ 2 & 3 ",
"9 K j g g g g g j f y l h h j j j l j j l h j j h u y h j j h j h > 0 d b Z { Z K l K j #.b.k.B.&.X.n.k ~ M.[ 6.V.6.] n.d * & 3 ",
"w p 7 g u u j f f u h l h l h p u u 7 u y 3 u h l h k l j u i i , @ w v Z l K K h h h h r 5 5 c.*.X.m.h k M./ 0.m.k ! m.k - * 3 ",
"9 0 u j f f g g f g h h l l l l y y 2 3 2 y y u u l p 3 , 2 3 3 , O a p y d l k p h f h 8.8.8.M.&.k M.q.&.M.^ 6.M.&.f.c.u 2 * 2 ",
"0 y 3 7 y u 5 4 7 : ; y y 0 y y O , 2 0 0 0 2 2 3 2 , 3 3 u y * X > s y 2 s k l u y u k f.n.b.c.@.r E g.k.z.X.g 9.x.a.x y 2 , 0 ",
"y 3 , # O O X O O O O X O + & + > 2 2 0 0 0 i y y 0 2 & * + O + > 0 i a 2 , & # # & , , * , 2 , & , 2 2 3 3 3 , * ; * 2 , 2 3 2 ",
"x m { _ m v x d s d s d s s k d s d x m d d v d v n d v d d d d K p i d y y y 0 i 0 3 y a w 0 1 2 9 0 3 w 9 , 2 , 2 0 y y d d d ",
"v p 9 0 l j K K l k l p 0 u h s s s R <.V <.<.1.<.<.| 2.<.I _ I V K K k n K k k l l K Z n v d n v v n s s s d k d p u 0 i k y 3 ",
"u y 3 y u u h u f h h f j c c l w x W -.f h -.c h h h l l V Z ;.:.n Z Z l k l l K K K l p h k h u p 3 z e d u u u 7 ; 2 y u u u ",
"h h j h u f g h g g h j j l j 3 % q x l h d K h h h k V -.=.-.K l l l h p k l p l l l y p h h h h u i y d h f f f u u u h h h y ",
"f f h g h g f f f f f j h j u & $ s ,.c c c p u h p c c c j h h l K l l l k u p l l h h l l h h h j h > y h f u u g g f f h u u ",
"f f u f f u u f f u u j j h u 3 1 v =.l l l h h h h j j j h u p h h u l l l h k k p l j l l l u h h h , d c u u u f u f u u f u ",
"u f u g u u g g h h h h h j h 3 1 m k p c l j h h j l j h h l j h h u u h u h h l p h h h l l u y u u + 0 u u u u f f f f f f u ",
"u f f f u f g g h h h h l h j 3 1 ;.-.c j h j l j j j l l h u u h h y u y i h y p p h h h l l u u u & . 2 u y u f f h h h h h h ",
"f f u u f u f h h j j l j h l ; 1 I -.K K l j j j h h l h f u y u u u h h j h u h h l l h h h h u u * o y c h u u f j h h j l u ",
"h u 3 g f u u g h : ; 7 3 h f = 1 w j l K c l l h h h l j h h h f u f h h u u l h f h h h h h f u f + @ d l y h j h h u u 3 * 3 ",
"2 # & 2 2 * & * + o > , 2 2 , 2 s s i , 2 3 3 2 2 3 7 3 ; * 2 2 + + , , & & & & # > , & * * & # & + # 9 d 2 + * * * * & O O @ @ ",
"2 2 2 9 9 9 e s e s z W W x x s s x v v s x d d d d 0 9 , , , , , 0 s a s x z d s v d s a s 0 w s s v x v x s z x d s s 2 0 2 2 ",
"w w ) | v _ m | <.m m I I n n I n 1.<.P 2.1.<.<.<.3.<.<.m v v k d d _ 3.3.Z Z d d d s d v P x _ m Z n n ;.I v <.{ n d k w 1 w v ",
"2 d <.h h j h h h f f h u u j j j j l i l c l j h h u u l c K l 0 d I c h u u u l u u h j h h l h h h u h l h h f u y f y q w m ",
"= 2 p h h f f g g 3 2 u u j l u f u u h l l h j h j j l h u f u & s K j h h l j g f h h h f h h h l h p l h u h u h l u f 0 q d ",
"+ 2 l h 2 u u u u u u u u h h u u u l h u u 0 p u h h h h f f 7 , d ;.c j h h u u h h j h f h h h u h j l l l l l h f 7 u 3 2 d ",
"# 0 l u u u y u u f u u y u h h u u u y u u u f u h j j h h f u 3 s =.f y u f u h h h u h h h u y p l h h l l l l u 7 7 f * > K ",
"# 2 h u y 3 u u f u u u u y h h u u i h h u f h j h l h l g f u , d c y y y y 3 u h h u u u 3 y l c l l l l k k h u u u j 3 < K ",
"O 2 h y 7 u u u h h h u u 3 u h h l l l h h h j j h h h p u u u 2 y h u u u u 3 y u y u u u h j h h k l l l k k l l l h l y , y ",
"o > h u u u u j f f h h h u u j j j h h y y h h g g y y h j h h = , y u u f f h u h h h h u h h h k l K d d K v k p h u l * > i ",
". , i h h h h f f f f g j f u h l j j u 3 j j c l l l j h u f h & 2 0 f f h j h u h h f h h h h l c c c l h p u i u u h y X > 2 ",
", 0 y 3 * * * ; ; + * ; - ; 2 3 3 ; - - 2 y y y y 2 - ; - - ; & # w 0 3 & & = - - - + & * - ; ; - & & * + + & & O & + O . # , d ",
"s z v 0 1 q d s 1 2 0 2 , , 9 2 , < > 1 0 2 , , 2 , , > > & > , 0 y d s 9 9 0 2 0 2 2 0 0 2 , @ O > , , , 2 , & 2 2 1 s d d s m ",
"s x s s m v d d m s s d x _ P d s d v m v d k k k n n _ ! W W v d v v m m m n n x v m d s v d w d v k k d d ;.K d v v n p d d d ",
"l j j V c u u u y 3 0 x <.K j p e v m 1.P I P Z K d V Z I <.n I I I I | P n l K K K k l K K d v Z p 0 d d <.;.K k d l h 7 u u i ",
"g g h h h h j g h h l K u u h u , d K h f u u f u 7 u u f u y f h h h h f y u u u u f f u f u u u 4 2 y k l h h h h h u u h l h ",
"h h h h l j g f h l l p k c u y , 0 d c f u u u f y u f u u h l h h h h h u u u u f g u 7 u u f h 8 2 y n K l l h u u u u u h h ",
"u f h h h g f g g g u j h h u h , y ;.j u f u f f u f u y f h l h u y y l f u u u f u u u 4 7 u y 4 * 2 K -.u h h u 7 u y y u 7 ",
"u u h l f f f f g f f u l j l h & w V h u u u u y u j f h f l h h h y u f 7 7 y f h u f f u u f u 7 , 0 ;.j u h f y u u u u u u ",
"f f f u u u u f g f u h h u h h & w K 3 u u u u j p u g u f f f h l f h u 7 u f f f f f u f f u f u * 9 p u h u 7 3 u 5 u u u u ",
"7 7 7 7 u u f f f u u f u f j h > x K p h u u f f h u 7 7 f f h h h f f u u f f u 7 7 u u 5 u u ; 3 & a k k u u u u 3 y u u 7 u ",
"y y u u u u u 3 y y y h h h l u , d k K u u u h u u 3 u g g f h g f u h h h h f y 2 u u u u f h y 3 o s K j h l h u u u u u u u ",
"u y u u 7 3 3 3 y y - y u u u * + y d f y u k p y y y u u f f u 7 u f h h u 3 3 3 y u u f u u u u & % d 2 * y u u u u y u y y y ",
"o O & & & * 2 2 & O # + + & # # 0 s d 2 # O O O O & > , , 2 3 , , * # # & # + & 2 2 > & & & * & O @ w d 9 1 > O O O O # + + O + ",
"2 0 y s s d s a d w w 0 s s s s s s d s y s s s s s a w y p i w y 0 0 0 0 a d v d s 0 2 s s 0 , 0 a w d x s s s y 0 y w 2 2 * 2 ",
"2 w m v K K d d s i y m m d s v d d K k v n ;.:.P _ | m { I v P y 0 y m ;.;.<.1.P W v v P P x s v v v | x s s x 0 2 2 d i 2 9 s ",
"- i y 3 y u u 2 y y y : 7 u l h h f f h l l u f h h u p f u h u 3 2 d k u 7 : 7 u u p h h h h j l u h p 3 y u 3 3 3 ; i 2 1 0 a ",
"2 y y y y u u u y u u y - u u u u u u f u f f h h y y f u u : 7 y , y k y 7 y y y h u y u u 7 4 7 7 f 3 7 u u 7 u u f u 7 i 1 9 ",
", p u y u u u u u u u u y 7 5 u u u p h y y u u f y y u u 7 7 u y > 0 h u u u u 3 y * 3 7 7 : 7 3 u 4 * u u u 3 7 u u u y ; @ y ",
"2 u u 7 u u u u u y 2 7 u y u f u u f u u 7 y u y y y y 3 y u u f 2 2 p u u y u y ; 3 u 3 y u f * * * 3 y 7 u u u u u u 5 - & i ",
", p h u u u u y y 7 y u u ; 3 g u u u u u 4 u f u y u u u f f u u * 2 l f u u u 7 3 u u u f u 7 3 y u u 0 3 3 7 r u u u : & # y ",
"> i u y y 3 y y 7 7 u u u u u 7 7 y 7 u y 3 y - y h u y 3 u f y y * w h f 7 u u u h h u y : ; 4 u y ; 2 7 u u u 4 5 7 7 r * # 0 ",
"# y y y y u u u 7 7 u u u u u 7 3 y u u 7 u 7 i l u 3 3 2 : : u h & 2 y 5 4 u u h u y 3 2 7 y 2 2 - 3 y 3 ; 5 7 : : : 3 4 & O 3 ",
"# 3 0 y y 3 7 7 5 7 y u u u f u f f u y 3 u u 7 u u 3 7 y y y 4 ; O 2 2 , , f g f u y 7 u h h i i y u u 3 & 7 4 5 7 4 5 4   O * ",
", 3 2 , > > & * - & & * ; ; - - ; - ; 3 + & * * & & * * & * 2 O O , y y 0 y 3 * & - - & 3 2 2 ; ; & & * + * - & & & + + X o , 2 ",
"0 a y 2 3 , , 2 , < 2 2 , > @ O o o @ + & , 2 1 2 9 < 1 1 9 1 0 d d i d s y 9 < 1 1 1 2 9 2 2 , > > , > > 2 , 1 , , < + # 2 9 0 ",
"v x s i p w s e v d d k d K 0 0 d 0 s v K K K v m x d x m d k n v k x n n P { P m n v v v x v k v d 0 0 i d x x d d K d 0 s s d ",
"- ; 3 3 3 d y u y 0 3 3 7 3 , 9 , 2 d l u u p k h i p y 3 y i i u i p u u u u y y i 0 y y y 3 2 u y , 3 3 y 2 ; u 7 y y y y 3 3 ",
"3 : 7 3 i 3 3 3 y y y u y y y y > i k u u u u u y 2 2 3 y y i y 3 y 3 7 ; : 4 : 3 y 3 3 u y 3 u 7 4 2 , y l y 7 7 7 3 : : & ; : ",
"; y y 3 3 y y 3 7 7 u y y u y 3 # 0 k u y u u y y y u 3 3 y y y u u 7 3 3 ; * * y 3 3 y 7 7 u y 7 7 * @ y h 7 y 7 7 7 7 ; y u y ",
"; 3 3 3 3 3 3 2 7 y 7 7 u y y 3 O 2 h y 3 7 u y y y 3 3 u u y y y 3 ; 7 ; y u u u ; 7 7 ; : 7 7 y 7 - + 3 u y 7 4 4 7 ; 7 7 : : ",
"3 3 3 3 3 3 3 3 3 3 3 3 7 3 7 2 O 1 u 7 7 7 7 y y 2 y y u y 7 y y 7 7 7 3 3 4 ; ; ; - & & ; : 7 ; 3 * O 0 u ; ; : : & & & - : : "
};
